!!!OTL: op18_no1_mvmnt2_all
**kern	**dynam	**kern	**dynam	**kern	**dynam	**kern	**dynam	**mxhm
*part4	*part4	*part3	*part3	*part2	*part2	*part1	*part1	*part1
*staff4	*	*staff3	*	*staff2	*	*staff1	*	*
*I"Cello	*	*I"Viola	*	*I"Violin II	*	*I"Violin I	*	*
*I'Vc.	*	*I'Vla.	*	*I'Vln. II	*	*I'Vln. I	*	*
*clefF4	*	*clefC3	*	*clefG2	*	*clefG2	*	*
*k[f#c#g#d#a#]	*	*k[f#c#g#d#a#]	*	*k[f#c#g#d#a#]	*	*k[f#c#g#d#a#]	*	*
*g#:	*	*g#:	*	*g#:	*	*g#:	*	*
*M9/8	*	*M9/8	*	*M9/8	*	*M9/8	*	*
=1	=1	=1	=1	=1	=1	=1	=1	=1
!	!	!	!LO:DY:a	!	!	!	!	!
(8G#'L	pp	(8B'L	pp pp	(8d#'L	.	8%9r	.	#viio6
8G#'	.	8B'	.	8d#'	.	.	.	.
8G#'J)	.	8B'J)	.	8d#'J)	.	.	.	.
(8B'L	.	(8d#'L	.	(8g#'L	.	.	.	.
8B'	.	8d#'	.	8g#'	.	.	.	.
8B'J)	.	8d#'J)	.	8g#'J)	.	.	.	.
(8A#'L	.	(8c#'L	.	(8f##X'L	.	.	.	.
8A#'	.	8c#'	.	8f##'	.	.	.	.
8A#'J)	.	8c#'J)	.	8f##'J)	.	.	.	.
=2	=2	=2	=2	=2	=2	=2	=2	=2
8G#L	<	8BL	<	8g#L	<	[2.dd#	pp <	i6
8G#	.	8B	.	8d#	.	.	.	.
8G#J	.	8BJ	.	8d#J	.	.	.	.
8BL	.	8d#L	.	8g#L	.	.	.	.
8B	.	8d#	.	8g#	.	.	.	.
8BJ	.	8d#J	.	8g#J	.	.	.	.
8A#L	.	8c#L	.	8f##XL	.	4.dd#_	[[	V43
8A#	.	8c#	.	8f##	.	.	.	.
8A#J	[[	8c#J	[[	8f##J	[[	.	.	.
=3	=3	=3	=3	=3	=3	=3	=3	=3
8G#L	>	8BL	>	8g#L	>	(4.dd#]	.	i
8G#	.	8B	.	8d#	.	.	.	.
8G#J	.	8BJ	.	8d#J	.	.	.	.
8BL	.	8d#L	.	8g#L	.	4.gg#	>	i6
8B	.	8d#	.	8g#	.	.	.	.
8BJ	.	8d#J	.	8g#J	.	.	.	.
8d#L	.	8f##XL	.	8d#L 8a#	.	4.aa#)	]]	V
8d#	.	8f##	.	8d# 8a#	.	.	.	.
8d#J	]]	8f##J	]]	8d#J 8a#	]]	.	.	.
=4	=4	=4	=4	=4	=4	=4	=4	=4
8g#L	.	8g#L	.	8bL	.	([4.bb	.	i
8G#	.	8B	.	8d#	.	.	.	.
8G#J	.	8BJ	.	8d#J	.	.	.	.
8G#L	.	8BL	.	8d#L	.	4bb]	.	.
8G#	.	8B	.	8d#	.	.	.	.
8G#J	.	8BJ	.	8d#J	.	16aa#LL	.	.
.	.	.	.	.	.	16gg#JJ)	.	.
8G#L	.	8BL	.	8eL	.	(16gg#LL	.	VI6
.	.	.	.	.	.	32aa#L	.	.
.	.	.	.	.	.	32gg#J	.	.
8G#	.	8B	.	8e	.	16ff##X	.	.
.	.	.	.	.	.	16gg#	.	.
8G#J	.	8BJ	.	8eJ	.	16bb	.	.
.	.	.	.	.	.	16aa#JJ)	.	.
=5	=5	=5	=5	=5	=5	=5	=5	=5
8A#L	.	8c#L	.	8eL	.	(4.gg#	.	#viio65(2)
8A#	.	8c#	.	8e	.	.	.	.
8A#J	.	8c#J	.	8eJ	.	.	.	.
8A#L	.	8c#L	.	8eL	.	[4.ff##X	.	#viio65
8A#	.	8c#	.	8ee	.	.	.	.
8A#J	.	8c#J	.	8eeJ	.	.	.	.
8A#L	.	8c#L	.	(8eeL	.	8ff##L])	.	.
8A#	.	8c#	.	8cc#	.	(16ff##L	.	.
.	.	.	.	.	.	16gg#	.	.
8A#J	.	8c#J	.	8a#J)	.	16aa#	.	.
.	.	.	.	.	.	16bbJJ)	.	.
=6	=6	=6	=6	=6	=6	=6	=6	=6
8A#L	.	8c#L	.	8f##XL	.	[4.ccc#	.	.
8A#	.	8c#	.	8f##	.	.	.	.
8A#J	.	8c#J	.	8f##J	.	.	.	.
8A#L	.	8c#L	.	8f##L	.	8ccc#L]	.	.
.	.	.	.	.	.	8qddd#/	.	.
8A#	.	8c#	.	8f##	.	(16ccc#L	.	.
.	.	.	.	.	.	16bb#X	.	.
8A#J	.	8c#J	.	8f##J	.	16ccc#	.	.
.	.	.	.	.	.	16ddd#JJ)	.	.
8A#L	.	8c#L	.	8f##L	.	(4eee	.	.
8A#	.	8c#	.	8f##	.	.	.	.
8A#J	.	8c#J	.	8f##J	.	8ff##X)	.	.
=7	=7	=7	=7	=7	=7	=7	=7	=7
8BL	.	8d#L	.	8f##XL	.	(4.aa#	.	i6(2)
8B	.	8d#	.	8g#	.	.	.	.
8BJ	.	8d#J	.	8g#J	.	.	.	.
8BL	.	8d#L	.	8g#L	.	[4.gg#)	.	i6
8B	.	8d#	.	8g#	.	.	.	.
8BJ	.	8d#J	.	8g#J	.	.	.	.
(8BL	.	(8d#L	.	(8g#L	.	(8gg#L]	.	.
8A#	.	8c#	.	8f##	.	8aa#	.	#viio6
8G#J)	.	8BJ)	.	8g#J)	.	8bbJ)	.	i
=8	=8	=8	=8	=8	=8	=8	=8	=8
!LO:TX:b:Bi:t=Cresc.	!	!LO:TX:b:Bi:t=Cresc.	!	!LO:TX:b:Bi:t=Cresc.	!	!LO:TX:b:Bi:t=Cresc.	!	!
8c#L	.	8eL	.	8g#L	.	(4.bb	.	ii%65(2)
8C#	.	8e	.	8g#	.	.	.	.
8C#J	.	8eJ	.	8g#J	.	.	.	.
8C#L	.	8eL	.	8g#L	.	[4.aa#)	.	ii%65
8C#	.	8e	.	8g#	.	.	.	.
8C#J	.	8eJ	.	8g#J	.	.	.	.
8C##XL	.	8e#L	.	8g#L	.	(8aa#L]	.	V65/V
8C##	.	8e#	.	8g#	.	8bb	.	.
8C##J	.	8e#J	.	8g#J	.	8gg#J)	.	.
=9	=9	=9	=9	=9	=9	=9	=9	=9
4D#	p	8A#L	p	4f##X	p	4ff##X	p	V\\
.	.	8d#	.	.	.	.	.	.
8r	.	8d#'J	.	8r	.	8r	.	.
8r	.	([4.d#	.	8r	.	8r	.	.
(8F##XL	.	.	.	(8dd#L	.	(8ddd#L	.	V65
8A#J	.	.	.	8cc#J	.	8ccc#J	.	.
8G#L	.	8d#L]	.	8bL	.	8bbL	.	i
8C#	.	8e	.	8a#	.	8aa#	.	iio6
8C##XJ)	.	8e#J)	.	8g#J)	.	8gg#J)	.	#viio/V
=10	=10	=10	=10	=10	=10	=10	=10	=10
(8D#L	.	[4.A#	.	4f##X	.	4ff##X	.	V\\
8E	.	.	.	.	.	.	.	.
8C##XJ	<	.	.	8r	.	8r	.	.
8D#L	.	8A#L]	.	(4dd#	<	(4ddd#	<	V
8F##X	.	(8d#'	.	.	.	.	.	.
8A#J	.	8d#'J)	.	8cc#	.	8ccc#	.	.
8G#L	[ >	(8d#L	.	8bL	[ >	8bbL	[ >	i
8C#	.	8e	.	8a#	.	8aa#	.	iio6
8C##XJ)	]]	8e#J)	.	8g#J)	]]	8gg#J)	]]	#viio/V
=11	=11	=11	=11	=11	=11	=11	=11	=11
4D#	.	4A#	.	4f##X	.	4ff##X	.	V[V
8r	.	8r	.	8r	.	8r	.	.
4r	.	4r	.	4r	.	4r	.	.
8r	.	8r	.	8r	.	8r	.	.
[4.d#	pp	(4.g#	pp	(4.b	pp	(4.ee	pp	VI6
=12	=12	=12	=12	=12	=12	=12	=12	=12
4d#]	.	4f##X)	.	4a#)	.	4dd#)	.	V6]
8r	.	8r	.	8r	.	8r	.	.
4r	.	4r	.	4r	.	4r	.	.
8r	.	8r	.	8r	.	8r	.	.
!	!	!	!LO:DY:a	!	!LO:DY:a	!	!	!
4.E	sf	4.e	sf sf	(4.e	sf	4.e	.	VI
=13	=13	=13	=13	=13	=13	=13	=13	=13
!	!	!	!LO:DY:a	!	!LO:DY:a	!	!	!
8D#L	p	(4.d#	p p	4d#)	p	(8d#L	.	V
8F##X	.	.	.	.	.	8f##X	.	.
8A#J	.	.	.	8r	.	8a#J	.	.
!LO:TX:b:Bi:t=Cresc.	!	!	!	!	!	!	!	!
[4.d#	.	8d#L	.	8r	.	8dd#L)	.	.
!	!	!LO:TX:b:Bi:t=Cresc.	!	!	!	!	!	!
!	!	!LO:TX:a:Bi:t=Cresc.	!	!LO:TX:a:Bi:t=Cresc.	!	!	!	!
.	.	8c#	.	(8f##XL	.	(16eL	.	.
.	.	.	.	.	.	16d#	.	.
.	.	8BJ	.	8g#J	.	16e	.	.
.	.	.	.	.	.	16d#JJ	.	.
8d#L]	.	8A#L	.	8a#L	.	16f##LL	.	.
.	.	.	.	.	.	16d#	.	.
8d#	.	8G#	.	8b	.	16g#	.	.
.	.	.	.	.	.	16d#	.	.
8d#J	.	8F##XJ)	.	8cc#J)	.	16a#	.	.
.	.	.	.	.	.	16d#JJ)	.	.
*clefC4	*	*	*	*	*	*	*	*
=14	=14	=14	=14	=14	=14	=14	=14	=14
!	!LO:DY:a	!	!	!	!	!	!	!
[2.d#	pp pp	(8G#'L	.	(8b'L	pp	(8g#L	pp	i
.	.	8G#'	.	8b'	.	8dd#'	.	.
.	.	8G#'J)	.	8b'J)	.	8dd#'J)	.	.
.	.	8BL	.	8g#L	.	8dd#L	.	i6
.	.	8B	.	8g#	.	8dd#	.	.
.	.	8BJ	.	8g#J	.	8dd#J	.	.
4.d#_	.	8A#L	.	8cc#L	.	8ff##XL	.	V43
.	.	8A#	.	8cc#	.	8ff##	.	.
.	.	8A#J	.	8cc#J	.	8ff##J	.	.
=15	=15	=15	=15	=15	=15	=15	=15	=15
(4.d#]	.	8G#L	.	8bL	.	8gg#L	.	i
.	.	8G#	.	8b	.	8dd#	.	.
.	.	8G#J	.	8bJ	.	8dd#J	.	.
4.g#	.	8BL	.	8g#L	.	8dd#L	.	i6
.	.	8B	.	8g#	.	8dd#	.	.
.	.	8BJ	.	8g#J	.	8dd#J	.	.
4.a#)	.	8d#L	.	8cc#L	.	8ff##XL	.	V7
.	.	8d#	.	8cc#	.	8ff##	.	.
.	.	8d#J	.	8cc#J	.	8ff##J	.	.
=16	=16	=16	=16	=16	=16	=16	=16	=16
([2.b	p	8G#L	p	(4.dd#	p	4gg#	p	i
.	.	8g#	.	.	.	.	.	.
.	.	8g#J	.	.	.	8r	.	VI6
.	.	8g#L	.	4.ee	.	4r	.	.
.	.	8g#	.	.	.	.	.	.
.	.	8g#J	.	.	.	8r	.	.
8bL]	.	8gXL	.	4.ee#)	.	4r	.	III.Ger6
8ddX	.	8g	.	.	.	.	.	.
8cc#J)	.	8gJ	.	.	.	8r	.	.
=17	=17	=17	=17	=17	=17	=17	=17	=17
([4.b	.	8F#L	.	8ff#L	.	([2.eee	.	V7
.	.	8F#	.	8cc#	.	.	.	.
.	.	8F#J	.	8cc#J	.	.	.	.
8bL]	.	8F#L	.	8cc#L	.	.	.	.
8a#	.	8F#	.	8cc#	.	.	.	.
8gXJ	.	8F#J	.	8cc#J	.	.	.	.
8f#L	.	8F#L	.	8cc#L	.	8eeeL]	.	.
8e	.	8F#	.	8aa#	.	8gggX	.	.
8c#J)	.	8F#J	.	8aa#J	.	8fff#J)	.	.
*clefF4	*	*	*	*	*	*	*	*
=18	=18	=18	=18	=18	=18	=18	=18	=18
(4.cX	.	8f#L	.	([2.aaX	.	(4.eee	.	v%43
.	.	8f#	.	.	.	.	.	.
.	.	8f#J	.	.	.	.	.	.
8BL)	.	8f#L	.	.	.	8ddd#L	.	V7/IV
8BB	.	8f#	.	.	.	8cccX	.	.
8BBJ	.	8f#J	.	.	.	8bbJ	.	.
8BBL	.	(8f#L	.	8aaL]	.	8aaXL	.	.
8BB	.	8aX	.	8cccX	.	8ff#	.	.
8BBJ	.	8f#J)	.	8bbJ)	.	8dd#J)	.	.
=19	=19	=19	=19	=19	=19	=19	=19	=19
!LO:TX:b:Bi:t=Cresc.	!	!LO:TX:b:Bi:t=Cresc.	!	!LO:TX:b:Bi:t=Cresc.	!	!LO:TX:b:Bi:t=Cresc.	!	!
8EL	.	([2.B	.	4.aaX	.	4.ddX	.	V7(4)/bVII
8E	.	.	.	.	.	.	.	.
8EJ	.	.	.	.	.	.	.	.
8EL	.	.	.	[4.gg#	.	((4.dddX	.	V7/bVII
8E	.	.	.	.	.	.	.	.
8EJ	.	.	.	.	.	.	.	.
8E#L	.	8BL]	.	8gg#L]	.	16dddLL)	.	#viio7/V
.	.	.	.	.	.	16ccc#	.	.
8E#	.	8g#)	.	8dX 8b	.	16eee	.	.
.	.	.	.	.	.	16ddd	.	.
8E#J	.	8g#J	.	8dJ 8b	.	16ccc#	.	.
.	.	.	.	.	.	16bbJJ)	.	.
=20	=20	=20	=20	=20	=20	=20	=20	=20
!	!	!	!LO:DY:a	!	!	!	!	!
4F#	p	4f#	p p	8c# 8a#	.	4aa#	p	V\\
.	.	.	.	(8ee#L	.	.	.	.
8r	.	8r	.	8ff#J	pp	8r	.	.
4r	.	4r	.	8b#XL	.	4r	.	.
.	.	.	.	8cc#	.	.	.	.
8r	.	8r	.	8g##XJ	.	8r	.	.
4r	.	4r	.	8a#L	.	4r	.	.
.	.	.	.	8e#	.	.	.	.
8r	.	8r	.	8f#J)	.	8r	.	.
=21	=21	=21	=21	=21	=21	=21	=21	=21
8%9r	.	4r	.	[2.gX	.	8r	.	iv6
.	.	.	.	.	.	(8aa#L	.	.
.	.	8r	.	.	.	8bbJ)	pp	.
.	.	8r	.	.	.	(8dd#	.	.
.	.	(8a#L	.	.	.	[4ee	.	.
.	.	8bJ	pp	.	.	.	.	.
.	.	8cc#L	.	8gL]	.	(8eeL])	.	.
.	.	8ddX	.	8g	.	8ee#	.	.Ger6
.	.	8bJ)	.	8gJ	.	8ee#J)	.	.
=22	=22	=22	=22	=22	=22	=22	=22	=22
(8F#L	pp	4a#	.	4f#	.	4ff#	.	V
8e#	.	.	.	.	.	.	.	.
8f#J	.	8r	.	8r	.	8r	.	.
8B#XL	.	4r	.	4r	.	4r	.	.
8c#	.	.	.	.	.	.	.	.
8G##XJ	.	8r	.	8r	.	8r	.	.
8A#L	.	4r	.	4r	.	4r	.	.
8E#	.	.	.	.	.	.	.	.
8F#J)	.	8r	.	8r	.	8r	.	.
=23	=23	=23	=23	=23	=23	=23	=23	=23
[2.E	.	(8F#L	.	4r	.	8r	.	V2
.	.	8A#	.	.	.	(8eee#L	.	.
.	.	8c#J)	.	8r	.	8fff#J	.	.
.	.	(8F#L	.	4r	.	8bb#XL	.	.
.	.	8A#	.	.	.	8ccc#	.	.
.	.	8c#J)	.	8r	.	8gg##XJ	.	.
4.E]	.	(8F#L	.	16r	.	8aa#L	.	.
.	.	.	.	(16f#LL	.	.	.	.
.	.	8A#	.	16e#	.	8ee#	.	.
.	.	.	.	16f#	.	.	.	.
.	.	8c#J)	.	16a#	.	8ff#J)	.	.
.	.	.	.	16cc#JJ)	.	.	.	.
=24	=24	=24	=24	=24	=24	=24	=24	=24
(2.D#	.	(8F#L	.	4dd#	.	8r	.	I6
.	.	8B	.	.	.	(8eee#L	.	.
.	.	8d#J)	.	8r	.	8fff#J	.	.
.	.	(8F#L	.	4r	.	8ccc##XL	.	.
.	.	8B	.	.	.	8ddd#	.	.
.	.	8d#J)	.	8r	.	8aa#J	.	.
4.D#)	.	(8F#L	.	16r	.	8bbL	.	.
.	.	.	.	(16f#LL	.	.	.	.
.	.	8B	.	16e#	.	8ee#	.	.
.	.	.	.	16f#	.	.	.	.
.	.	8d#J)	.	16b	.	8ff#J)	.	.
.	.	.	.	16dd#JJ	.	.	.	.
=25	=25	=25	=25	=25	=25	=25	=25	=25
!LO:TX:b:Bi:t=Cresc.	!	!	!	!	!	!	!	!
(2.AA#	.	(8F#L	.	4ee)	.	8r	.	V65
!	!	!LO:TX:b:Bi:t=Cresc.	!	!	!	!	!	!
.	.	8c#	.	.	.	(8ddd#L	.	.
!	!	!	!	!	!	!LO:TX:b:Bi:t=Cresc.	!	!
.	.	8eJ)	.	8r	.	8eeeJ	.	.
.	.	(8F#L	.	4r	.	8ccc#L	.	.
.	.	8c#	.	.	.	8aa#	.	.
.	.	8eJ)	.	8r	.	8eeJ	.	.
4.FF#)	.	(8F#L	.	16r	.	8cc#L	.	V7
.	.	.	.	(16a#LL	.	.	.	.
!	!	!	!	!LO:TX:b:Bi:t=Cresc.	!	!	!	!
.	.	8c#	.	16ff#	.	8a#	.	.
.	.	.	.	16ee	.	.	.	.
.	.	8eJ)	.	16ff#	.	8eJ)	.	.
.	.	.	.	16eeJJ)	.	.	.	.
=26	=26	=26	=26	=26	=26	=26	=26	=26
4BB	p	(8A#L	p	(4.ff#	p	4d#	p	I
.	.	8f#)	.	.	.	.	.	.
8r	.	8f#J	.	.	.	8r	.	.
4r	.	(8cc#L	.	4.ee	.	4r	.	V7
.	.	8f#)	.	.	.	.	.	.
8r	.	8f#J	.	.	.	8r	.	.
4r	.	(8bL	.	8dd#	.	4r	.	I
.	.	.	.	8qee/	.	.	.	.
.	.	8f#)	.	16dd#LL	.	.	.	.
.	.	.	.	16cc#	.	.	.	.
8r	.	8f#J	.	16dd#	.	8r	.	.
.	.	.	.	16eeJJ)	.	.	.	.
=27	=27	=27	=27	=27	=27	=27	=27	=27
(4.e	.	(8a#L	.	4cc#	.	(4.ggg#	.	V2(9)
.	.	8f#)	.	.	.	.	.	.
.	.	8f#J	.	8r	.	.	.	.
4.d#	.	(8bL	.	4r	.	4.fff#	.	I6
.	.	8f#)	.	.	.	.	.	.
.	.	8f#J	.	8r	.	.	.	.
4.A#)	.	(8cc#L	.	4r	.	8eeeL	.	V65
.	.	.	.	.	.	8qfff#/	.	.
.	.	8f#)	.	.	.	16eeeL	.	.
.	.	.	.	.	.	16ddd#	.	.
.	.	8f#J	.	8r	.	16eee	.	.
.	.	.	.	.	.	16fff#JJ)	.	.
=28	=28	=28	=28	=28	=28	=28	=28	=28
4B	.	(8dd#L	.	(8ff#L	.	4ddd#	.	I
.	.	8f#)	.	16bbL	.	.	.	.
.	.	.	.	16aa#	.	.	.	.
8r	.	8f#J	.	16gg#	.	8r	.	.
.	.	.	.	16ff#JJ)	.	.	.	.
4r	.	(8a#L	.	(16ff#LL	.	4r	.	V7
.	.	.	.	16ee	.	.	.	.
.	.	8f#)	.	16ccc#	.	.	.	.
.	.	.	.	16aa#	.	.	.	.
8r	.	8f#J	.	16ff#	.	8r	.	.
.	.	.	.	16eeJJ)	.	.	.	.
4r	.	(8bL	.	(16eeLL	.	4r	.	I
.	.	.	.	16dd#	.	.	.	.
.	.	8f#)	.	16bb	.	.	.	.
.	.	.	.	16ff#	.	.	.	.
8r	.	8f#J	.	16ee	.	8r	.	.
.	.	.	.	16dd#JJ)	.	.	.	.
=29	=29	=29	=29	=29	=29	=29	=29	=29
(4.e	.	(4.a#	.	(8cc#L	.	(8ggg#L	.	V2(9)
.	.	.	.	8f#)	.	16cccc#L	.	.
.	.	.	.	.	.	16bbb	.	.
.	.	.	.	8f#'J	.	16aaa#	.	.
.	.	.	.	.	.	16ggg#JJ)	.	.
4.d#	.	4.b	.	(8dd#L	.	(16ggg#LL	.	I6
.	.	.	.	.	.	16fff#	.	.
.	.	.	.	8f#)	.	16bbb	.	.
.	.	.	.	.	.	16aaa#	.	.
.	.	.	.	8f#'J	.	16ggg#	.	.
.	.	.	.	.	.	16fff#JJ)	.	.
4.A#)	.	4.cc#)	.	(8eeL	.	(16fff#LL	.	V65
.	.	.	.	.	.	16eee	.	.
.	.	.	.	8f#)	.	16cccc#	.	.
.	.	.	.	.	.	16aaa#	.	.
.	.	.	.	8f#'J	.	16fff#	.	.
.	.	.	.	.	.	16eeeJJ)	.	.
=30	=30	=30	=30	=30	=30	=30	=30	=30
4B	.	4b	.	4f# 4dd#	.	(16ddd#LL	.	I
.	.	.	.	.	.	16ccc##X	.	.
.	.	.	.	.	.	16ddd#	.	.
.	.	.	.	.	.	16ccc#	.	.
8r	.	8r	.	8r	.	16bb	.	.
.	.	.	.	.	.	16aa#JJ	.	.
4r	.	4r	.	4r	.	16gg#LL	.	IV
.	.	.	.	.	.	16ff##X	.	.
.	.	.	.	.	.	16gg#	.	.
.	.	.	.	.	.	16ff#	.	.
8r	.	8r	.	8r	.	16ee	.	.
.	.	.	.	.	.	16dd#JJ	.	.
4r	.	4r	.	4r	.	16cc#LL	.	ii
.	.	.	.	.	.	16b#X	.	.
.	.	.	.	.	.	16cc#	.	.
.	.	.	.	.	.	16b	.	.
8r	.	8r	.	8r	.	16a#	.	.
.	.	.	.	.	.	16g#JJ)	.	.
=31	=31	=31	=31	=31	=31	=31	=31	=31
(16d#LL	.	[4.d#	.	4r	.	(4f##X	.	V/vi
16c##X	.	.	.	.	.	.	.	.
16d#	.	.	.	.	.	.	.	.
16c#	.	.	.	.	.	.	.	.
16B	.	.	.	8r	.	16g#LL	.	.
16A#JJ	.	.	.	.	.	16a#JJ)	.	.
16G#LL	.	4d#]	.	(4g#	.	(4b	.	vi
16F##X	.	.	.	.	.	.	.	.
16G#	.	.	.	.	.	.	.	.
16F#	.	.	.	.	.	.	.	.
16E	.	(16g#LL	.	16a#LL	.	16cc#LL	.	.
16D#JJ	.	16f#JJ	.	16b#XJJ	.	16dd#JJ)	.	.
16C#LL	.	16eLL	.	[4.cc#)	.	[4.ee	.	ii
16BB#X	.	16d#	.	.	.	.	.	.
16C#	.	16e	.	.	.	.	.	.
16BB	.	16d#	.	.	.	.	.	.
16AA#	.	16c#	.	.	.	.	.	.
16GG#JJ)	.	16BJJ)	.	.	.	.	.	.
=32	=32	=32	=32	=32	=32	=32	=32	=32
!LO:TX:b:Bi:t=Cresc.	!	!LO:TX:b:Bi:t=Cresc.	!	!LO:TX:b:Bi:t=Cresc.	!	!LO:TX:b:Bi:t=Cresc.	!	!
(4.FF#	.	(16A#LL	.	(16cc#LL]	.	(2.ee]	.	V7
.	.	16B	.	16b	.	.	.	.
.	.	16c#	.	16a#	.	.	.	.
.	.	16B	.	16b	.	.	.	.
.	.	16A#	.	16cc#	.	.	.	.
.	.	16BJJ	.	16bJJ	.	.	.	.
4.F#	.	16c#LL	.	16a#LL	.	.	.	.
.	.	16B	.	16b	.	.	.	.
.	.	16A#	.	16cc#	.	.	.	.
.	.	16B	.	16b	.	.	.	.
.	.	16c#	.	16a#	.	.	.	.
.	.	16A#JJ	.	16cc#JJ	.	.	.	.
4.GX)	.	16BLL	.	4.b)	.	4.ddX)	.	.bVI
.	.	16A#	.	.	.	.	.	.
.	.	16B	.	.	.	.	.	.
.	.	16c#	.	.	.	.	.	.
.	.	16dX	.	.	.	.	.	.
.	.	16BJJ)	.	.	.	.	.	.
=33	=33	=33	=33	=33	=33	=33	=33	=33
4.E	.	4.GX	.	(16gXLL	.	(4.ccX	.	.bII6
.	.	.	.	16f#	.	.	.	.
.	.	.	.	16g	.	.	.	.
.	.	.	.	16f#	.	.	.	.
.	.	.	.	16g	.	.	.	.
.	.	.	.	16f#JJ)	.	.	.	.
!	!LO:DY:a	!	!LO:DY:a	!	!	!	!	!
4.GX	sf sf	(16BLL	sf	(4.e#	.	[4.b)	sf	.Ger6
.	.	16A#	.	.	.	.	.	.
.	.	16B	.	.	.	.	.	.
.	.	16A#	.	.	.	.	.	.
.	.	16B	.	.	.	.	.	.
.	.	16A#JJ)	.	.	.	.	.	.
4.F#	>]	4f#	>	4.eX	>]	8bL]	>	V7(4)
.	.	.	.	.	.	8cc#	.	V7
.	.	(8f#	]]	.	.	8a#J	]]	.
=34	=34	=34	=34	=34	=34	=34	=34	=34
!	!	!	!LO:DY:a	!	!	!	!	!
4BB'	p	16ff#LL	p p	4d#)	.	4b	p	I\\
.	.	16ee#	.	.	.	.	.	.
.	.	16ff#	.	.	.	.	.	.
.	.	16eeX	.	.	.	.	.	.
8r	.	16dd#	.	8r	.	8r	.	.
.	.	16cc#JJ)	.	.	.	.	.	.
4r	.	(16bLL	.	(16ddd#LL	.	4r	.	.
.	.	16a#	.	16ccc##X	.	.	.	.
.	.	16b	.	16ddd#	.	.	.	.
.	.	16aX	.	16ccc#	.	.	.	.
8r	.	16g#	.	16bb	.	8r	.	.
.	.	16f#JJ)	.	16aa#JJ)	.	.	.	.
(4E	.	(16eLL	.	(16gg#LL	.	(16ggg#LL	.	.
.	.	16d#	.	16ff##X	.	16fff##X	.	.
.	.	16e	.	16gg#	.	16ggg#	.	IV
.	.	16d#	.	16ff#	.	16fff#	.	.
16F#LL	.	16c#	.	16ee	.	16eee	.	.
16G#JJ)	.	16BJJ)	.	16dd#JJ)	.	16ddd#JJ)	.	.
=35	=35	=35	=35	=35	=35	=35	=35	=35
(16AXLL	.	8AXL	.	8cc#L	.	(4.ccc#	.	.bVII
16G#	.	.	.	.	.	.	.	.
16A	.	8e	.	8aX	.	.	.	.
16G#	.	.	.	.	.	.	.	.
16F#	.	8eJ	.	8a'J	.	.	.	.
16EJJ	.	.	.	.	.	.	.	.
16D#LL	.	2.f#	.	2.a	.	4.cccX	.	viio7/IV
16E	.	.	.	.	.	.	.	.
16D#	.	.	.	.	.	.	.	.
16E	.	.	.	.	.	.	.	.
16F#	.	.	.	.	.	.	.	.
16EJJ	.	.	.	.	.	.	.	.
16D#LL	.	.	.	.	.	[4.bb)	.	V65/IV
16C##X	.	.	.	.	.	.	.	.
16D#	.	.	.	.	.	.	.	.
16BB	.	.	.	.	.	.	.	.
16C##	.	.	.	.	.	.	.	.
16D#JJ)	.	.	.	.	.	.	.	.
=36	=36	=36	=36	=36	=36	=36	=36	=36
!LO:TX:b:Bi:t=Cresc.	!	!LO:TX:b:Bi:t=Cresc.	!	!LO:TX:b:Bi:t=Cresc.	!	!LO:TX:b:Bi:t=Cresc.	!	!
(16ELL	.	(8.eL	.	8gXL	.	(8bbL]	.	iv
16D#	.	.	.	.	.	.	.	.
16E	.	.	.	8ggX	.	8eee)	.	.
16DX	.	16bL	.	.	.	.	.	.
16C#	.	16a#	.	8gg'J	.	8eeeJ	.	.
16BBJJ)	.	16bJJ)	.	.	.	.	.	.
(16AA#LL	.	(4.cc#	.	2.ff#	.	(4.eee	.	V65
16FF#	.	.	.	.	.	.	.	.
16AA#	.	.	.	.	.	.	.	.
16C#	.	.	.	.	.	.	.	.
16F#	.	.	.	.	.	.	.	.
16A#JJ	.	.	.	.	.	.	.	.
16BLL	.	4.b)	.	.	.	4.dddX)	.	i
16A#	.	.	.	.	.	.	.	.
16B	.	.	.	.	.	.	.	.
16c#	.	.	.	.	.	.	.	.
16dX	.	.	.	.	.	.	.	.
16BJJ)	.	.	.	.	.	.	.	.
=37	=37	=37	=37	=37	=37	=37	=37	=37
4.E	.	4.e	.	(16ggXLL	.	4.cccX	.	.bII6
.	.	.	.	16ff#	.	.	.	.
.	.	.	.	16gg	.	.	.	.
.	.	.	.	16ff#	.	.	.	.
.	.	.	.	16gg	.	.	.	.
.	.	.	.	16ff#JJ)	.	.	.	.
4.GX	sf	(16BLL	sf	(4.ee#	sf	[4.bb	sf	.Ger6
.	.	16A#	.	.	.	.	.	.
.	.	16B	.	.	.	.	.	.
.	.	16A#	.	.	.	.	.	.
.	.	16B	.	.	.	.	.	.
.	.	16dXJJ)	.	.	.	.	.	.
4.F#	>]	4f#	>	4.eeX)	>]	(8bbL]	>	V7(4)
.	.	.	.	.	.	8ccc#	.	V7
.	.	(8f#	]]	.	.	8aa#J)	]]	.
=38	=38	=38	=38	=38	=38	=38	=38	=38
8BBL	p	4.ff#)	p	8dd#L	p	8bbL	p	I\\
8B	.	.	.	8d#	.	8f#	.	.
8BJ	.	.	.	8d#J	.	8f#J	.	.
4B	.	(16ee#LL	.	4d#	.	4f#	.	.
.	.	16ff#)	.	.	.	.	.	.
.	.	(16gg#	.	.	.	.	.	.
.	.	16ff#)	.	.	.	.	.	.
8r	.	(16cc##X	.	8r	.	8r	.	.
.	.	16dd#JJ)	.	.	.	.	.	.
4r	.	(16eeXLL	.	4r	.	4r	.	I[I
.	.	16dd#)	.	.	.	.	.	.
.	.	(16a#	.	.	.	.	.	.
.	.	16b)	.	.	.	.	.	.
8r	.	(16cc#	.	8r	.	8r	.	.
.	.	16bJJ)	.	.	.	.	.	.
=39	=39	=39	=39	=39	=39	=39	=39	=39
8BBL	.	8eL	.	4.ccc#	.	8a#L	.	viio64]
8B	.	8e	.	.	.	8a#	.	.
8BJ	.	8eJ	.	.	.	8a#J	.	.
4B	.	4e	.	(16bb#XLL	.	4a#	.	.
.	.	.	.	16ccc#)	.	.	.	.
.	.	.	.	(16ddd#	.	.	.	.
.	.	.	.	16ccc#)	.	.	.	.
8r	.	8r	.	(16gg##X	.	8r	.	.
.	.	.	.	16aa#JJ)	.	.	.	.
4r	.	4r	.	(16bbLL	.	4r	.	.
.	.	.	.	16aa#)	.	.	.	.
.	.	.	.	(16ee#	.	.	.	.
.	.	.	.	16ff#)	.	.	.	.
8r	.	8r	.	(16gg#	.	8r	.	.
.	.	.	.	16ff#JJ)	.	.	.	.
=40	=40	=40	=40	=40	=40	=40	=40	=40
8BL	.	8dd#L	.	8ff#L	.	4.fff#	.	I
8b	.	8dd#	.	8ff#	.	.	.	.
8bJ	.	8dd#J	.	8ff#J	.	.	.	.
4b	.	4dd#	.	4ff#	.	(16eee#LL	.	.
.	.	.	.	.	.	16fff#)	.	.
.	.	.	.	.	.	(16ggg#	.	.
.	.	.	.	.	.	16fff#)	.	.
8r	.	8r	.	8r	.	(16ccc##X	.	.
.	.	.	.	.	.	16ddd#JJ)	.	.
4r	.	4r	.	4r	.	(16eeeXLL	.	.
.	.	.	.	.	.	16ddd#)	.	.
.	.	.	.	.	.	(16aa#	.	.
.	.	.	.	.	.	16bb)	.	.
8r	.	8r	.	8r	.	(16ccc#	.	.
.	.	.	.	.	.	16bbJJ)	.	.
=41	=41	=41	=41	=41	=41	=41	=41	=41
8%9r	.	8%9r	.	8%9r	.	(16ff##XLL	.	IV-ii
.	.	.	.	.	.	16gg#)	.	.
.	.	.	.	.	.	(16aa#	.	.
.	.	.	.	.	.	16gg#)	.	.
.	.	.	.	.	.	(16dd#	.	.
.	.	.	.	.	.	16eeJJ)	.	.
.	.	.	.	.	.	(16ff#LL	.	V7
.	.	.	.	.	.	16ee)	.	.
.	.	.	.	.	.	(16b#X	.	.
.	.	.	.	.	.	16cc#)	.	.
.	.	.	.	.	.	(16dd#	.	.
.	.	.	.	.	.	16cc#JJ)	.	.
.	.	.	.	.	.	(16b#LL	.	I
.	.	.	.	.	.	16cc#)	.	.
.	.	.	.	.	.	(16dd#	.	.
.	.	.	.	.	.	16cc#)	.	.
.	.	.	.	.	.	(16b#	.	.
.	.	.	.	.	.	16cc#JJ)	.	.
=42	=42	=42	=42	=42	=42	=42	=42	=42
!	!LO:DY:a	!	!	!	!	!	!	!
[2.F#	pp pp	(4c#	.	4r	.	(4ee	pp	V7
.	.	8B	.	8r	.	8dd#	.	V(64)
.	.	4A#	.	(4cc#	.	[4.cc#)	.	V
!	!	!	!LO:DY:a	!	!	!	!	!
.	.	8G#	pp	8b	.	.	.	.
4F#]	.	4F#	.	4a#	.	(8cc#L]	.	.
.	.	.	.	.	.	8dd#	.	.
(8E	.	8A#)	.	8c#)	.	8eeJ)	.	viio64
=43	=43	=43	=43	=43	=43	=43	=43	=43
4D#	.	(4B	.	(4f#	.	(4ff#	.	I6
!LO:TX:b:Bi:t=Cresc.	!	!LO:TX:b:Bi:t=Cresc.	!	!LO:TX:b:Bi:t=Cresc.	!	!LO:TX:b:Bi:t=Cresc.	!	!
8C#	.	8e	.	16g#LL	.	16gg#LL	.	.
.	.	.	.	16a#JJ)	.	16aa#JJ)	.	viio6
4BB	.	[4.d#)	.	[4.b	.	([4.bb	.	I
8AA#	.	.	.	.	.	.	.	.
4GG#	.	(8d#L]	.	8bL]	.	8bbL]	.	vi
.	.	8g#	.	(8b	.	8dd#)	.	.
8FF##X)	.	8a#J)	.	8cc#J)	.	8dd#J	.	V65/vi
=44	=44	=44	=44	=44	=44	=44	=44	=44
(8GG#L	p	4g#	p	(4b	p	(4dd#	p	vi
8G#	.	.	.	.	.	.	.	.
.	.	.	.	.	.	16qqff#/LL	.	ii6
.	.	.	.	.	.	16qqee/	.	.
.	.	.	.	.	.	16qqdd#/	.	.
.	.	.	.	.	.	16qqee/JJ	.	.
8EJ)	.	8g#	.	8cc#	.	16ff#LL	.	.
.	.	.	.	.	.	16eeJJ)	.	.
(4.F#	<	(4.f#	<	4.b	<	([4.dd#	<	V(64)
4.FF#)	>]	4.e)	>]	4.a#)	>]	8.dd#L]	.	V7(6)
.	.	.	.	.	.	16cc#L	.	V7
.	.	.	.	.	.	16.gg#	[ >	.
.	.	.	.	.	.	32ff#JJk)	]]	.
=45	=45	=45	=45	=45	=45	=45	=45	=45
4BB	]	4d#	]	4f#	]	4b	.	I
8r	pp	8r	pp	8r	pp	8r	pp	.
4B	.	4d#	.	4f#	.	4b	.	I\\
8r	.	8r	.	8r	.	8r	.	.
4r	.	4r	.	4r	.	4r	.	.
8r	.	8r	.	8r	.	8r	.	.
=46	=46	=46	=46	=46	=46	=46	=46	=46
4AX	.	4f#	.	4d# 4b	.	4.fff#	.	V2/IV
8r	pp	8r	pp	8r	pp	.	.	.
4aX	.	4ff#	.	4dd# 4bb	.	(16eee#LL	pp	.
.	.	.	.	.	.	16fff#)	.	.
.	.	.	.	.	.	(16ggg#	.	.
.	.	.	.	.	.	16fff#)	.	.
8r	.	8r	.	8r	.	(16ccc##X	.	.
.	.	.	.	.	.	16ddd#JJ)	.	.
4r	.	4r	.	4.r	.	(16eeeXLL	.	.
.	.	.	.	.	.	16ddd#)	.	.
.	.	.	.	.	.	(16aa#	.	.
.	.	.	.	.	.	16bb)	.	.
8r	.	8r	.	.	.	(16ccc#	.	.
.	.	.	.	.	.	16bbJJ)	.	.
=47	=47	=47	=47	=47	=47	=47	=47	=47
4G#	.	4f#	.	4d# 4b#X	.	4.fff#	.	V7/ii
8r	.	8r	.	8r	.	.	.	.
4g#	.	4ff#	.	4dd# 4bb#X	.	(16eee#LL	.	.
.	.	.	.	.	.	16fff#)	.	.
!	!	!	!	!	!	!LO:TX:b:Bi:t=Cresc.	!	!
.	.	.	.	.	.	(16ccc##X	.	.
.	.	.	.	.	.	16ddd#)	.	.
8r	.	8r	.	8r	.	(16aa##X	.	.
.	.	.	.	.	.	16bb#XJJ)	.	.
4r	.	4r	.	4r	.	(16ff##XLL	.	.
.	.	.	.	.	.	16gg#)	.	.
.	.	.	.	.	.	(16ee#	.	.
.	.	.	.	.	.	16ff#)	.	.
8r	.	8r	.	8r	.	(16dd#	.	.
.	.	.	.	.	.	16b#XJJ)	.	.
=48	=48	=48	=48	=48	=48	=48	=48	=48
!	!LO:DY:a	!	!LO:DY:a	!	!	!	!	!
8C#'L	f f	(4.G#	f	(4.g#	.	[2.g# [2.gg#	f	i6
8C#'	.	.	.	.	.	.	.	.
8C#'J	.	.	.	.	.	.	.	.
8E'L	.	4.c#	.	4.cc#	.	.	.	.
8E'	.	.	.	.	.	.	.	.
8E'J	.	.	.	.	.	.	.	.
8BB#X'L	.	4d#)	.	4.dd#)	.	4.g#] 4.gg#]	.	V6
8BB#'	.	.	.	.	.	.	.	.
8BB#'J	.	8r	.	.	.	.	.	.
=49	=49	=49	=49	=49	=49	=49	=49	=49
8C#L	sf	([4.e	sf	([4.ee	sf	(32gg#LLL	.	i
.	.	.	.	.	.	32ff##X	.	.
.	.	.	.	.	.	32gg#	.	.
.	.	.	.	.	.	32bb#X	.	.
8C#	.	.	.	.	.	32ccc#	.	.
.	.	.	.	.	.	32bb#	.	.
.	.	.	.	.	.	32ccc#	.	.
.	.	.	.	.	.	32ddd#JJ)	.	.
8C#J	.	.	.	.	.	8eee'J	.	.
8EL	.	4e]	.	4ee]	.	2.g# 2.gg#	sf	V
8E	.	.	.	.	.	.	.	.
8EJ	.	16d#LL	.	16dd#LL	.	.	.	.
.	.	16c#JJ)	.	16cc#JJ)	.	.	.	.
8G#L	.	(16c#LL	.	(16cc#LL	.	.	.	.
.	.	32d#L	.	32dd#L	.	.	.	.
.	.	32c#J	.	32cc#J	.	.	.	.
8G#	.	16B#X	.	16b	.	.	.	.
.	.	16c#	.	16cc#	.	.	.	.
8G#J	.	16e	.	16ee	.	.	.	.
.	.	16d#JJ)	.	16dd#JJ)	.	.	.	.
=50	=50	=50	=50	=50	=50	=50	=50	=50
8D#L	sf	(4.c#	sf	(4.cc#	sf	(32gg#LLL	.	V7/V
.	.	.	.	.	.	32ff##X	.	.
.	.	.	.	.	.	32gg#	.	.
.	.	.	.	.	.	32aa#	.	.
8D#	.	.	.	.	.	32bb#X	.	.
.	.	.	.	.	.	32aa#	.	.
.	.	.	.	.	.	32bb#	.	.
.	.	.	.	.	.	32ccc#JJ)	.	.
8D#J	.	.	.	.	.	8ddd#'J	.	.
8F#L	.	[4.B#X	.	[4.b#X	.	2.g# 2.gg#	sf	V
8F#	.	.	.	.	.	.	.	.
8F#J	.	.	.	.	.	.	.	.
8G#L	.	8B#L])	.	8b#L])	.	.	.	.
8G#	.	(16B#L	.	(16b#L	.	.	.	.
.	.	16c#	.	16cc#	.	.	.	.
8G#J	.	16d#	.	16dd#	.	.	.	.
.	.	16eJJ)	.	16eeJJ)	.	.	.	.
=51	=51	=51	=51	=51	=51	=51	=51	=51
8BB#XL	sf	[4.f#	sf	[4.ff#	sf	(32gg#LLL	.	V65
.	.	.	.	.	.	32ff##X	.	.
.	.	.	.	.	.	32gg#	.	.
.	.	.	.	.	.	32aa#	.	.
8BB#	.	.	.	.	.	32bb#X	.	.
.	.	.	.	.	.	32aa#	.	.
.	.	.	.	.	.	32bb#	.	.
.	.	.	.	.	.	32ccc#JJ)	.	.
8BB#J	.	.	.	.	.	8ddd#'J	.	.
8D#L	.	4f#]	.	4ff#]	.	2.b#X	.	V
8D#	.	.	.	.	.	.	.	.
8D#J	.	(16g#LL	.	(16gg#LL	.	.	.	.
.	.	16f#JJ	.	16ff#JJ	.	.	.	.
8G#L	.	16e#LL	.	16ee#LL	.	.	.	.
.	.	16f#	.	16ff#	.	.	.	.
8G#	.	16g#	.	16gg#	.	.	.	.
.	.	16f#	.	16ff#	.	.	.	.
8G#J	.	16aX	.	16aaX	.	.	.	.
.	.	16g#JJ)	.	16gg#JJ)	.	.	.	.
=52	=52	=52	=52	=52	=52	=52	=52	=52
8BBL	sf	(4.f#	sf	(4.ff#	sf	(32gg#LLL	.	vii.ii%65
.	.	.	.	.	.	32ff##X	.	.
.	.	.	.	.	.	32gg#	.	.
.	.	.	.	.	.	32aaX	.	.
8BB	.	.	.	.	.	32bb	.	.
.	.	.	.	.	.	32aa	.	.
.	.	.	.	.	.	32bb	.	.
.	.	.	.	.	.	32ccc#JJ)	.	.
8BBJ	.	.	.	.	.	8dddX'J	.	.
8DXL	.	[4.e#	.	[4.ee#	.	2.b	sf	viio6
8D	.	.	.	.	.	.	.	.
8DJ	.	.	.	.	.	.	.	.
8G#L	.	8e#L])	.	8ee#L])	.	.	.	.
8G#	.	(16e#L	.	(16ee#L	.	.	.	.
.	.	16f#	.	16ff#	.	.	.	.
8F#'J	.	16g#	.	16gg#	.	.	.	.
.	.	16aXJJ)	.	16aaXJJ)	.	.	.	.
=53	=53	=53	=53	=53	=53	=53	=53	=53
!LO:TX:b:Bi:t=Cresc.	!	!LO:TX:b:Bi:t=Cresc.	!	!LO:TX:b:Bi:t=Cresc.	!	!LO:TX:b:Bi:t=Cresc.	!	!
8E#L	.	[4.b	.	[4.bb	.	(32ccc#LLL	.	V65
.	.	.	.	.	.	32bb#X	.	.
.	.	.	.	.	.	32ccc#	.	.
.	.	.	.	.	.	32ddd#	.	.
8E#	.	.	.	.	.	32eee#	.	.
.	.	.	.	.	.	32ddd#	.	.
.	.	.	.	.	.	32eee#	.	.
.	.	.	.	.	.	32fff#JJJ)	.	.
8E#J	.	.	.	.	.	8ggg#'	.	.
8G#L	.	8bL]	.	8bbL]	.	[4.e#	.	viio6
8G#	.	(16bL	.	(16bbL	.	.	.	.
.	.	16g#	.	16gg#	.	.	.	.
8G#J	.	16e#	.	16ee#	.	.	.	.
.	.	16c#JJ)	.	16cc#JJ)	.	.	.	.
8C#L	.	(16B#XLL	.	(16b#XLL	.	8e#L]	.	V
.	.	16c#	.	16cc#	.	.	.	.
8C#	.	16dX	.	16ddX	.	(8e#	.	.
.	.	16c#	.	16cc#	.	.	.	.
8C#J	.	16B	.	16b	.	8cc#J)	.	.
.	.	16G#JJ)	.	16g#JJ)	.	.	.	.
=54	=54	=54	=54	=54	=54	=54	=54	=54
(32F#LLL	pp	4AX	pp	8f#L 8aX	pp	(4.cc#	pp	i\\
32E#	.	.	.	.	.	.	.	.
32F#	.	.	.	.	.	.	.	.
32G#	.	.	.	.	.	.	.	.
32AX	.	.	.	8f# 8a	.	.	.	.
32G#	.	.	.	.	.	.	.	.
32A	.	.	.	.	.	.	.	.
32BJJ)	.	.	.	.	.	.	.	.
8c#'J	.	8r	.	8f#J 8a	.	.	.	.
4r	.	4r	.	4.f# 4.a	.	4.ff#	.	i
8r	.	8r	.	.	.	.	.	.
4r	.	4r	.	4.f# 4.a	.	4.gg#)	.	.
8r	.	8r	.	.	.	.	.	.
=55	=55	=55	=55	=55	=55	=55	=55	=55
(32DXLLL	.	(4.AX	.	4.f# 4.aX	.	4aaX	.	VI
32C#	.	.	.	.	.	.	.	.
32D	.	.	.	.	.	.	.	.
32E	.	.	.	.	.	.	.	.
32F#	.	.	.	.	.	.	.	.
32E#	.	.	.	.	.	.	.	.
32F#	.	.	.	.	.	.	.	.
32G#JJ)	.	.	.	.	.	.	.	.
8AX'J	.	.	.	.	.	8r	.	.
4r	.	4.dX	.	4.f# 4.a	.	4r	.	.
8r	.	.	.	.	.	8r	.	.
4r	.	4.e)	.	4.f# 4.a	.	4r	.	.
8r	.	.	.	.	.	8r	.	.
=56	=56	=56	=56	=56	=56	=56	=56	=56
(32BB#XLLL	.	4f#	.	8f#L 8g#	.	(4.gg#	.	V65/V
32AA#	.	.	.	.	.	.	.	.
32BB#	.	.	.	.	.	.	.	.
32C#	.	.	.	.	.	.	.	.
32D#	.	.	.	8f# 8g#	.	.	.	.
32C#	.	.	.	.	.	.	.	.
32D#	.	.	.	.	.	.	.	.
32EJJ)	.	.	.	.	.	.	.	.
8F#'J	.	8r	.	8f# 8g#	.	.	.	.
4r	.	4r	.	8f# 8g#	.	4.ddd#	.	.
.	.	.	.	8f# 8g#	.	.	.	.
8r	.	8r	.	8f# 8g#	.	.	.	.
4r	.	4r	.	8f# 8g#	.	4.ggg#)	.	.
.	.	.	.	8f# 8g#	.	.	.	.
8r	.	8r	.	8f#J 8g#	.	.	.	.
=57	=57	=57	=57	=57	=57	=57	=57	=57
(32C#LLL	.	(4.G#	.	8eL 8g#	.	4eee	.	iv.i
32BB#X	.	.	.	.	.	.	.	.
32C#	.	.	.	.	.	.	.	.
32D#	.	.	.	.	.	.	.	.
32E	.	.	.	8e 8g#	.	.	.	.
32D#	.	.	.	.	.	.	.	.
32E	.	.	.	.	.	.	.	.
32F#JJ)	.	.	.	.	.	.	.	.
8G#'J	.	.	.	8e 8g#	.	8r	.	.
4r	.	4.c#	.	8e 8g#	.	4r	.	.
.	.	.	.	8e 8g#	.	.	.	.
8r	.	.	.	8e 8g#	.	8r	.	.
4r	.	4.d#)	.	8e 8g#	.	4r	.	.
.	.	.	.	8e 8g#	.	.	.	.
8r	.	.	.	8eJ 8g#	.	8r	.	.
=58	=58	=58	=58	=58	=58	=58	=58	=58
!LO:TX:b:Bi:t=Cresc.	!	!LO:TX:b:Bi:t=Cresc.	!	!LO:TX:b:Bi:t=Cresc.	!	!LO:TX:b:Bi:t=Cresc.	!	!
(32AAXLLL	.	(4.e	.	8cc#L	.	(4.ee	.	VI
32GG#	.	.	.	.	.	.	.	.
32AA	.	.	.	.	.	.	.	.
32BB	.	.	.	.	.	.	.	.
32C#	.	.	.	8cc#	.	.	.	.
32BB	.	.	.	.	.	.	.	.
32C#	.	.	.	.	.	.	.	.
32DXJJ)	.	.	.	.	.	.	.	.
8E'J	.	.	.	8cc#J	.	.	.	.
4r	.	4.aX	.	8cc#L 8ee	.	4.aaX	.	.
.	.	.	.	8cc# 8ee	.	.	.	.
8r	.	.	.	8cc#J 8ee	.	.	.	.
4r	.	4.g#)	.	8bL 8ee	.	4.bb)	.	III6
.	.	.	.	8b 8ee	.	.	.	.
8r	.	.	.	8bJ 8ee	.	.	.	.
=59	=59	=59	=59	=59	=59	=59	=59	=59
4F##X	f	4f##X 4a#	f	4cc# 4ee	f	4ccc#	f	#viio7/V
8r	.	8r	.	8r	.	8r	.	.
4r	.	4r	.	4r	.	4r	.	.
8r	.	8r	.	8r	.	8r	.	.
4r	.	4r	.	4r	.	4r	.	.
8r	.	8r	.	8r	.	8r	.	.
=60	=60	=60	=60	=60	=60	=60	=60	=60
4G#	p	4g#	p	4b 4dd#	p	4bb	p	i.i
8r	.	8r	.	8r	.	8r	.	.
4r	.	4r	.	4r	.	4r	.	.
8r	.	8r	.	8r	.	8r	.	.
4r	.	4r	.	4r	.	4r	.	.
8r	.	8r	.	8r	.	8r	.	.
=61	=61	=61	=61	=61	=61	=61	=61	=61
4C#	pp	4e	pp	4g#	pp	4aa#	pp	ii%65
8r	.	8r	.	8r	.	8r	.	.
4r	.	4r	.	4r	.	4r	.	.
8r	.	8r	.	8r	.	8r	.	.
4r	.	4r	.	4r	.	4r	.	.
8r	.	8r	.	8r	.	8r	.	.
=62	=62	=62	=62	=62	=62	=62	=62	=62
4D#	ppp	4c#	ppp	4f##X	ppp	4dd#	ppp	V7
8r	.	8r	.	8r	.	8r	.	.
4r	.	4r	.	4r	.	4r	.	.
8r	.	8r	.	8r	.	8r	.	.
4r	.	4r	.	4r	.	4r	.	.
8r	.	8r	.	8r	.	8r	.	.
=63	=63	=63	=63	=63	=63	=63	=63	=63
!	!LO:DY:a	!	!	!	!	!	!	!
(8G#'L	pp pp	(8B'L	.	16r	pp	8%9r	.	V43
.	.	.	.	(16d#LL	.	.	.	.
8G#'	.	8B'	.	16e	.	.	.	.
.	.	.	.	16d#	.	.	.	.
8G#'J)	.	8B'J)	.	16e	.	.	.	.
.	.	.	.	16d#JJ)	.	.	.	.
(8B'L	.	(8d#'L	.	16r	.	.	.	.
.	.	.	.	(16d#LL	.	.	.	.
8B'	.	8d#'	.	16g#	.	.	.	.
.	.	.	.	16d#	.	.	.	.
8B'J)	.	8d#'J)	.	16g#	.	.	.	.
.	.	.	.	16d#JJ)	.	.	.	.
(8A#'L	.	(8c#'L	.	16r	.	.	.	.
.	.	.	.	(16d#LL	.	.	.	.
8A#'	.	8c#'	.	16f##X	.	.	.	.
.	.	.	.	16d#	.	.	.	.
8A#'J)	.	8c#'J)	.	16f##	.	.	.	.
.	.	.	.	16d#JJ)	.	.	.	.
=64	=64	=64	=64	=64	=64	=64	=64	=64
8G#L	.	8BL	.	16r	.	[2.dd#	.	i6
.	.	.	.	(16d#LL	.	.	.	.
!LO:TX:b:Bi:t=Cresc.	!	!LO:TX:b:Bi:t=Cresc.	!	!LO:TX:b:Bi:t=Cresc.	!	!	!	!
8G#	.	8B	.	16e	.	.	.	.
.	.	.	.	16d#	.	.	.	.
8G#J	.	8BJ	.	16e	.	.	.	.
.	.	.	.	16d#JJ)	.	.	.	.
8BL	.	8d#L	.	16r	.	.	.	.
.	.	.	.	(16d#LL	.	.	.	.
8B	.	8d#	.	16g#	.	.	.	.
.	.	.	.	16d#	.	.	.	.
8BJ	.	8d#J	.	16g#	.	.	.	.
.	.	.	.	16d#JJ)	.	.	.	.
!	!	!	!	!	!	!LO:TX:b:Bi:t=Cresc.	!	!
8A#L	.	8c#L	.	16r	.	4.dd#_	pp	V43
.	.	.	.	(16d#LL	.	.	.	.
8A#	.	8c#	.	16f##X	.	.	.	.
.	.	.	.	16d#	.	.	.	.
8A#J	.	8c#J	.	16f##	.	.	.	.
.	.	.	.	16d#JJ)	.	.	.	.
=65	=65	=65	=65	=65	=65	=65	=65	=65
8G#L	.	8BL	.	16r	.	(4.dd#]	.	i
.	.	.	.	(16d#LL	.	.	.	.
8G#	.	8B	.	16e	.	.	.	.
.	.	.	.	16d#	.	.	.	.
8G#J	.	8BJ	.	16e	.	.	.	.
.	.	.	.	16d#JJ)	.	.	.	.
8BL	.	8d#L	.	16r	.	4.gg#	.	i6
.	.	.	.	(16d#LL	.	.	.	.
8B	.	8d#	.	16g#	.	.	.	.
.	.	.	.	16d#	.	.	.	.
8BJ	.	8d#J	.	16g#	.	.	.	.
.	.	.	.	16d#JJ)	.	.	.	.
8d#L	.	8f##XL	.	16r	.	4.aa#)	.	V
.	.	.	.	(16d#LL	.	.	.	.
8d#	.	8f##	.	16a#	.	.	.	.
.	.	.	.	16d#	.	.	.	.
8d#J	.	8f##J	.	16a#	.	.	.	.
.	.	.	.	16d#JJ)	.	.	.	.
=66	=66	=66	=66	=66	=66	=66	=66	=66
8GG#L	p	16r	p	16r	p	([4.bb	p	i
.	.	(16BLL	.	(16bLL	.	.	.	.
8G#	.	16d#	.	16dd#	.	.	.	.
.	.	16B	.	16b	.	.	.	.
8G#J	.	16d#	.	16dd#	.	.	.	.
.	.	16BJJ)	.	16bJJ)	.	.	.	.
8GG#L	.	16r	.	16r	.	4bb]	.	.
.	.	(16BLL	.	(16bLL	.	.	.	.
8G#	.	16d#	.	16dd#	.	.	.	.
.	.	16B	.	16b	.	.	.	.
8G#J	.	16d#	.	16dd#	.	16aa#LL	.	.
.	.	16BJJ)	.	16bJJ)	.	16gg#JJ)	.	.
8GG#L	.	16r	.	16r	.	(16gg#LL	.	VI6
.	.	(16BLL	.	(16bLL	.	32aa#L	.	.
.	.	.	.	.	.	32gg#J	.	.
8G#	.	16e	.	16ee	.	16ff##X	.	.
.	.	16B	.	16b	.	16gg#	.	.
8G#J	.	16e	.	16ee	.	16bb	.	.
.	.	16BJJ)	.	16bJJ)	.	16aa#JJ)	.	.
=67	=67	=67	=67	=67	=67	=67	=67	=67
8AA#L	f	(32c#LLL	f	(32cc#LLL	f	(4.gg#	f	#viio65(2)
.	.	32B#X	.	32b#X	.	.	.	.
.	.	32c#	.	32cc#	.	.	.	.
.	.	32B#	.	32b#	.	.	.	.
8A#	.	32c#	.	32cc#	.	.	.	.
.	.	32B#	.	32b#	.	.	.	.
.	.	32c#	.	32cc#	.	.	.	.
.	.	32d#JJ)	.	32dd#JJ)	.	.	.	.
8A#J	.	8e'J	.	8ee'J	.	.	.	.
8AA#L	.	(32c#LLL	.	(32cc#LLL	.	[4.ff##X	.	#viio65
.	.	32B#	.	32b#	.	.	.	.
.	.	32c#	.	32cc#	.	.	.	.
.	.	32B#	.	32b#	.	.	.	.
8A#	.	32c#	.	32cc#	.	.	.	.
.	.	32B#	.	32b#	.	.	.	.
.	.	32c#	.	32cc#	.	.	.	.
.	.	32d#JJ)	.	32dd#JJ)	.	.	.	.
8A#J	.	8d#'J	.	8ee'J	.	.	.	.
8AA#L	.	(32c#LLL	.	(32cc#LLL	.	8ff##L])	.	.
.	.	32B#	.	32b#	.	.	.	.
.	.	32c#	.	32cc#	.	.	.	.
.	.	32d#	.	32dd#	.	.	.	.
8A#	.	32e	.	32ee	.	(16ff##L	.	.
.	.	32d#	.	32dd#	.	.	.	.
.	.	32e	.	32ee	.	16gg#	.	.
.	.	32d#	.	32dd#	.	.	.	.
8A#J	.	32c#	.	32cc#	.	16aa#	.	.
.	.	32B	.	32b	.	.	.	.
.	.	32A#	.	32a#	.	16bbJJ)	.	.
.	.	32G#JJJ)	.	32g#JJJ)	.	.	.	.
=68	=68	=68	=68	=68	=68	=68	=68	=68
8AA#L	p	16F##X'LL	p	16f##X'	p	[4.ccc#	p	.
.	.	(16A#	.	(16f##LL	.	.	.	.
8A#	.	16c#	.	16ee	.	.	.	.
.	.	16A#	.	16f##	.	.	.	.
8A#J	.	16c#	.	16ee	.	.	.	.
.	.	16A#JJ)	.	16f##JJ)	.	.	.	.
8AA#L	.	16r	.	16r	.	8ccc#L]	.	.
.	.	(16A#LL	.	(16f##LL	.	.	.	.
.	.	.	.	.	.	8qddd#/	.	.
8A#	.	16c#	.	16ee	.	(16ccc#L	.	.
.	.	16A#	.	16f##	.	16bb#X	.	.
8A#J	.	16c#	.	16ee	.	16ccc#	.	.
.	.	16A#JJ)	.	16f##JJ)	.	16ddd#JJ)	.	.
8AA#L	.	16r	.	16r	.	(4eee	.	.
.	.	(16A#LL	.	(16f##LL	.	.	.	.
8A#	.	16c#	.	16ee	.	.	.	.
.	.	16A#	.	16f##	.	.	.	.
8A#J	.	16c#	.	16ee	.	8ff##X)	.	.
.	.	16A#JJ)	.	16f##JJ)	.	.	.	.
=69	=69	=69	=69	=69	=69	=69	=69	=69
8BBL	f	(32d#LLL	f	(32dd#LLL	f	(4.aa#	f	i6(2)
.	.	32c#	.	32cc##X	.	.	.	.
.	.	32d#	.	32dd#	.	.	.	.
.	.	32c#	.	32cc##	.	.	.	.
8B	.	32d#	.	32dd#	.	.	.	.
.	.	32c#	.	32cc#	.	.	.	.
.	.	32B	.	32b	.	.	.	.
.	.	32A#JJ)	.	32a#JJ)	.	.	.	.
8BJ	.	8G#'J	.	8g#'J	.	.	.	.
8BBL	.	(32d#LLL	.	(32dd#LLL	.	(4.gg#)	.	i6
.	.	32c##X	.	32cc##X	.	.	.	.
.	.	32d#	.	32dd#	.	.	.	.
.	.	32c##	.	32cc##	.	.	.	.
8B	.	32d#	.	32dd#	.	.	.	.
.	.	32c#	.	32cc#	.	.	.	.
.	.	32B	.	32b	.	.	.	.
.	.	32A#JJ)	.	32a#JJ)	.	.	.	.
8BJ	.	8G#'J	.	8g#'J	.	.	.	.
8BBL	.	(32d#LLL	.	(32dd#LLL	.	(8gg#L)	.	.
.	.	32c##X	.	32cc##X	.	.	.	.
.	.	32d#	.	32dd#	.	.	.	.
.	.	32c##	.	32cc##	.	.	.	.
8B	.	32d#	.	32dd#	.	8aa#	.	.
.	.	32c#	.	32cc#	.	.	.	.
.	.	32B-X	.	32b	.	.	.	.
.	.	32A#JJ)	.	32a#JJ)	.	.	.	.
8BJ	.	8G#'J	.	8g#'J	.	8bbJ)	.	.
=70	=70	=70	=70	=70	=70	=70	=70	=70
8C#L	.	16r	.	16r	.	(4.bb	.	ii%65(2)
.	.	(16eLL	p	(16g#LL	p	.	.	.
8c#	p	16g#	.	16a#	.	.	.	.
.	.	16e	.	16g#	.	.	.	.
8c#J	.	16g#	.	16a#	.	.	.	.
.	.	16eJJ)	.	16g#JJ)	.	.	.	.
8C#L	.	16r	.	16r	.	[4.aa#)	p	ii%65
.	.	(16eLL	.	(16g#LL	.	.	.	.
8c#	.	16g#	.	16a#	.	.	.	.
.	.	16e	.	16g#	.	.	.	.
8c#J	.	16g#	.	16a#	.	.	.	.
.	.	16eJJ)	.	16g#JJ)	.	.	.	.
8C##XL	.	16r	.	16r	.	(8aa#L]	.	#viio7/V
.	.	(16eLL	.	(16g#LL	.	.	.	.
8c##X	.	16g#	.	16b	.	8bb	.	.
.	.	16e	.	16g#	.	.	.	.
8c##J	.	16g#	.	16b	.	8gg#J)	.	.
.	.	16eJJ)	.	16g#JJ)	.	.	.	.
=71	=71	=71	=71	=71	=71	=71	=71	=71
4D#	.	8A#L	.	4f##X	.	4ff##X	.	V\\
.	.	(8d#'	.	.	.	.	.	.
8r	.	8d#'J)	.	8r	.	8r	.	.
8r	.	([4.d#	.	8r	.	8r	.	.
(8F##XL	.	.	.	(8dd#L	.	(8ddd#L	.	.
8A#J	.	.	.	8cc#J	.	8ccc#J	.	.
8G#L	.	8d#L]	.	8bL	.	8bbL	.	i
8C#	.	8e	.	8a#	.	8aa#	.	iio6
8C##XJ)	.	8e#J)	.	8g#J)	.	8gg#J)	.	#viio7/V
=72	=72	=72	=72	=72	=72	=72	=72	=72
(8D#L	.	([4.A#	.	4f##X	.	4ff##X	.	V
8E	<	.	.	.	.	.	.	.
8C##XJ	.	.	.	8r	.	8r	.	.
8D#L	.	8A#L]	<	(4dd#	<	(4ddd#	<	.
8F##X	.	8d#)	.	.	.	.	.	.
8A#J	[ >	8d#J	[ >	8cc#	.	8ccc#	.	.
8G#L	.	(8d#L	.	8bL	[ >	8bbL	[ >	i
8C#	.	8e	.	8a#	.	8aa#	.	iio6
8C##XJ)	]]	8e#J)	]]	8g#J)	]]	8gg#J)	]]	#viio7/V
=73	=73	=73	=73	=73	=73	=73	=73	=73
4D#	.	4A#	.	4f##X	.	4ff##X	.	V[V64
8r	.	8r	.	8r	.	8r	.	.
4r	.	4r	.	4r	.	4r	.	.
8r	.	8r	.	8r	.	8r	.	.
(4.d#	pp	(4.g#	pp	(4.b	pp	(4.ee	pp	IV6
=74	=74	=74	=74	=74	=74	=74	=74	=74
4d#)	.	4f##X)	.	4a#)	.	4dd#)	.	V6]
8r	.	8r	.	8r	.	8r	.	.
4r	.	4r	.	4r	.	4r	.	.
8r	.	8r	.	8r	.	8r	.	.
!	!	!	!LO:DY:a	!	!LO:DY:a	!	!	!
(4.E	sf	(4.e	sf sf	(4.e	sf	(4.e	.	VI
=75	=75	=75	=75	=75	=75	=75	=75	=75
!	!	!	!LO:DY:a	!	!LO:DY:a	!	!	!
8D#L	p	8d#L	p p	8d#L	p	8d#L	.	I.V
!LO:TX:b:Bi:t=Cresc.	!	!LO:TX:b:Bi:t=Cresc.	!	!LO:TX:b:Bi:t=Cresc.	!	!LO:TX:b:Bi:t=Cresc.	!	!
8F##X	.	8f##X	.	8f##X	.	8f##X	.	.
8A#J	.	8a#J)	.	8a#J	.	8a#J	.	.
8d#L	.	[4.dd#	.	8dd#L	.	8dd#L	.	.
8c#	.	.	.	8f##	.	8d#	.	.
8B#XJ	.	.	.	8g#J	.	8e#J	.	.
8A#L	.	8dd#L]	.	8a#L	.	8f##L	.	.
8G#	.	8dd#	.	8b#X	.	8g#	.	.
8F##J)	.	8dd#J	.	8cc#J)	.	8a#J)	.	V65
=76	=76	=76	=76	=76	=76	=76	=76	=76
4G#	p	(4.dd#	p	(8b#XL	p	4g#	p	I
.	.	.	.	8d#)	.	.	.	.
8r	.	.	.	8d#J	.	8r	.	.
4r	.	4.cc#	.	(8a#L	.	4r	.	V2
.	.	.	.	8d#)	.	.	.	.
8r	.	.	.	8d#J	.	8r	.	.
4r	.	8b#X	.	(8g#L	.	4r	.	I6
.	.	8qcc#/	.	.	.	.	.	.
.	.	16b#'LL	.	8d#)	.	.	.	.
.	.	16a#	.	.	.	.	.	.
8r	.	16b#	.	8d#J	.	8r	.	.
.	.	16cc#JJ)	.	.	.	.	.	.
=77	=77	=77	=77	=77	=77	=77	=77	=77
(4.c#	.	4a#	.	(8f##XL	.	(4.eee#	.	V2(9)
.	.	.	.	8d#)	.	.	.	.
.	.	8r	.	8d#J	.	.	.	.
4.B#X	.	4r	.	(8g#L	.	4.ddd#	.	I6
.	.	.	.	8d#)	.	.	.	.
.	.	8r	.	8d#J	.	.	.	.
4.F##X)	.	4r	.	(8a#L	.	8ccc#L	.	V65
.	.	.	.	.	.	8qddd#/	.	.
.	.	.	.	8d#)	.	16ccc#L	.	.
.	.	.	.	.	.	16bb#X	.	.
.	.	8r	.	8d#J	.	16ccc#	.	.
.	.	.	.	.	.	16ddd#JJ)	.	.
=78	=78	=78	=78	=78	=78	=78	=78	=78
4G#	.	(8dd#L	.	(8b#XL	.	4bb#X	.	I
.	.	16gg#L	.	8d#)	.	.	.	.
.	.	16ff##X	.	.	.	.	.	.
8r	.	16ee#	.	8d#J	.	8r	.	.
.	.	16dd#JJ)	.	.	.	.	.	.
4r	.	(16dd#LL	.	(8f##XL	.	4r	.	V2
.	.	16cc#	.	.	.	.	.	.
.	.	16aa#	.	8d#)	.	.	.	.
.	.	16gg##X	.	.	.	.	.	.
8r	.	16dd#	.	8d#J	.	8r	.	.
.	.	16cc#JJ)	.	.	.	.	.	.
4r	.	(16cc#LL	.	(8g#L	.	4r	.	I6
.	.	16b#X	.	.	.	.	.	.
.	.	16gg#	.	8d#)	.	.	.	.
.	.	16dd#	.	.	.	.	.	.
8r	.	16cc#	.	8d#J	.	8r	.	.
.	.	16b#JJ)	.	.	.	.	.	.
=79	=79	=79	=79	=79	=79	=79	=79	=79
(4.c#	.	(4.a#	.	(8f##XL	.	(8eee#L	.	V2(#2)
.	.	.	.	8d#)	.	16aaa#L	.	V2
.	.	.	.	.	.	16ggg#	.	.
.	.	.	.	8d#J	.	16fff##X	.	.
.	.	.	.	.	.	16eee#JJ)	.	.
4.B#X	.	4.b#X	.	(8g#L	.	(16eee#LL	.	I6
.	.	.	.	.	.	16ddd#	.	.
.	.	.	.	8d#)	.	16ggg#	.	.
.	.	.	.	.	.	16fff##	.	.
.	.	.	.	8d#J	.	16eee#	.	.
.	.	.	.	.	.	16ddd#JJ)	.	.
4.F##X)	.	4.cc#)	.	(8a#L	.	(16ddd#LL	.	V65
.	.	.	.	.	.	16ccc#	.	.
.	.	.	.	8d#)	.	16aaa#	.	.
.	.	.	.	.	.	16fff##	.	.
.	.	.	.	8d#J	.	16ddd#	.	.
.	.	.	.	.	.	16ccc#JJ)	.	.
=80	=80	=80	=80	=80	=80	=80	=80	=80
4G#	.	4b#X	.	4d#	.	(16bb#XLL	.	I
.	.	.	.	.	.	16aa##X	.	.
.	.	.	.	.	.	16bb#	.	.
.	.	.	.	.	.	16aa#	.	.
8r	.	8r	.	8r	.	16gg#	.	.
.	.	.	.	.	.	16ff##XJJ	.	.
4r	.	4r	.	4r	.	16eeLL	.	vi-IV
.	.	.	.	.	.	16dd##X	.	.
.	.	.	.	.	.	16ee	.	.
.	.	.	.	.	.	16dd#	.	.
8r	.	8r	.	8r	.	16cc#	.	.
.	.	.	.	.	.	16b#XJJ	.	.
4r	.	4r	.	4r	.	16a#LL	.	ii
.	.	.	.	.	.	16g##X	.	.
.	.	.	.	.	.	16a#	.	.
.	.	.	.	.	.	16g#	.	.
8r	.	8r	.	8r	.	16f##X	.	.
.	.	.	.	.	.	16e#JJ)	.	.
=81	=81	=81	=81	=81	=81	=81	=81	=81
(16BLL	.	[4.B#X	.	4r	.	(4d##X	.	V/vi
16A##X	.	.	.	.	.	.	.	.
16B	.	.	.	.	.	.	.	.
16A#	.	.	.	.	.	.	.	.
16G#	.	.	.	8r	.	16e#LL	.	.
16F##XJJ	.	.	.	.	.	16f##XJJ	.	.
16E#LL	.	(4B#]	.	(4e#	.	4g#	.	vi
16D##X	.	.	.	.	.	.	.	.
16E#	.	.	.	.	.	.	.	.
16D#	.	.	.	.	.	.	.	.
16C#	.	[8e#)	.	16f##XLL	.	16a#LL	.	.
16BB#XJJ	.	.	.	16g#JJ	.	16b#XJJ)	.	.
16AA#LL	.	(16e#LL]	.	8.a#L	.	(8cc#'L	.	ii
16E#	.	16d#	.	.	.	.	.	.
16A#	.	16c#	.	.	.	8cc#'	.	.
16G#	.	16B#	.	16e#L	.	.	.	.
16F##	.	16A#	.	16f##	.	8cc#'J)	.	.
16E#JJ)	.	16G#JJ)	.	16g#JJ)	.	.	.	.
=82	=82	=82	=82	=82	=82	=82	=82	=82
!LO:TX:b:Bi:t=Cresc.	!	!LO:TX:b:Bi:t=Cresc.	!	!LO:TX:b:Bi:t=Cresc.	!	!LO:TX:b:Bi:t=Cresc.	!	!
(2.D#	.	(16F##XLL	.	(16a#LL	.	(2.cc#	.	V7
.	.	16G#	.	16g#	.	.	.	.
.	.	16A#	.	16f##X	.	.	.	.
.	.	16G#	.	16g#	.	.	.	.
.	.	16F##	.	16a#	.	.	.	.
.	.	16G#JJ	.	16g#JJ	.	.	.	.
.	.	16A#LL	.	16f##LL	.	.	.	.
.	.	16G#	.	16g#	.	.	.	.
.	.	16F##	.	16a#	.	.	.	.
.	.	16G#	.	16g#	.	.	.	.
.	.	16A#	.	16f##	.	.	.	.
.	.	16F##JJ	.	16a#JJ)	.	.	.	.
4.E)	.	16G#LL	.	4.g#	.	4.b)	.	VI
.	.	16F##	.	.	.	.	.	.
.	.	16G#	.	.	.	.	.	.
.	.	16A#	.	.	.	.	.	.
.	.	16B	.	.	.	.	.	.
.	.	16G#JJ)	.	.	.	.	.	.
=83	=83	=83	=83	=83	=83	=83	=83	=83
4.C#	.	4.c#	.	(16eLL	.	(4.aX	.	.bII6
.	.	.	.	16d#	.	.	.	.
.	.	.	.	16e	.	.	.	.
.	.	.	.	16d#	.	.	.	.
.	.	.	.	16e	.	.	.	.
.	.	.	.	16d#JJ)	.	.	.	.
!	!LO:DY:a	!	!LO:DY:a	!	!	!	!	!
4.E	sf sf	(16G#LL	sf	(4.c##X	.	[4.g#)	sf	.Ger6
.	.	16F##X	.	.	.	.	.	.
.	.	16G#	.	.	.	.	.	.
.	.	16F##	.	.	.	.	.	.
.	.	16G#	.	.	.	.	.	.
.	.	16BJJ)	.	.	.	.	.	.
4.D#	>]	(4d#	>	4c#	>	8g#L]	>	V7(4)
.	.	.	.	.	.	8a#	.	V7
.	.	8dd#)	]]	8cc#)	]]	8f##XJ	]]	.
=84	=84	=84	=84	=84	=84	=84	=84	=84
4G#	p	(16dd#LL	p	4b#X	p	4g#	p	I\\
.	.	16cc##X	.	.	.	.	.	.
.	.	16dd#	.	.	.	.	.	.
.	.	16cc#	.	.	.	.	.	.
8r	.	16b#X	.	8r	.	8r	.	.
.	.	16a#JJ	.	.	.	.	.	.
4r	.	16g#LL	.	(16bbLL	.	4r	.	.
.	.	16f##X	.	16aa##X	.	.	.	.
.	.	16g#	.	16bb	.	.	.	.
.	.	16f#	.	16aa#	.	.	.	.
8r	.	16e#	.	16gg#	.	8r	.	.
.	.	16d#JJ)	.	16ff##XJJ	.	.	.	.
(16c#LL	.	(4c#	.	16eeLL	.	(16eee#LL	.	IV
16B#X	.	.	.	16dd##X	.	16ddd##X	.	.
16c#	.	.	.	16ee	.	16eee#	.	.
16B#	.	.	.	16dd#	.	16ddd#	.	.
16A#	.	16d#LL	.	16cc#	.	16ccc#	.	.
16G#JJ)	.	16e#JJ)	.	16b#JJ)	.	16bb#XJJ)	.	.
=85	=85	=85	=85	=85	=85	=85	=85	=85
(16F#LL	.	[2.f#	.	4.a#	.	(4.aa#	.	VII
16E	.	.	.	.	.	.	.	.
16F#	.	.	.	.	.	.	.	.
16E	.	.	.	.	.	.	.	.
16D#	.	.	.	.	.	.	.	.
16C#JJ	.	.	.	.	.	.	.	.
16BB#XLL	.	.	.	([4.dd#	.	4.aaX	.	#viio7/iv
16C#	.	.	.	.	.	.	.	.
16BB#	.	.	.	.	.	.	.	.
16C#	.	.	.	.	.	.	.	.
16D#	.	.	.	.	.	.	.	.
16C#JJ	.	.	.	.	.	.	.	.
16BB#LL	.	8f#L]	.	8.dd#L]	.	[4.gg#)	.	.
16AA#	.	.	.	.	.	.	.	.
16BB#	.	8f#	.	.	.	.	.	.
16GG#	.	.	.	16b#XL	.	.	.	.
16AA#	.	8f#J	.	16cc#	.	.	.	.
16BB#JJ)	.	.	.	16dd#JJ)	.	.	.	.
=86	=86	=86	=86	=86	=86	=86	=86	=86
(16C#LL	.	8.eL	.	(4.ee	.	(8gg#L]	.	iv
16e	.	.	.	.	.	.	.	.
!LO:TX:b:Bi:t=Cresc.	!	!	!	!	!	!LO:TX:b:Bi:t=Cresc.	!	!
16c#	.	.	.	.	.	8ccc#)	.	.
!	!	!LO:TX:b:Bi:t=Cresc.	!	!	!	!	!	!
16B	.	(16g#L	.	.	.	.	.	.
16A#	.	16a#	.	.	.	8ccc#J	.	.
16G#JJ	.	16bJJ)	.	.	.	.	.	.
!	!	!	!	!LO:TX:b:Bi:t=Cresc.	!	!	!	!
16F##XLL	.	(4.a#	.	[4.dd#	.	(4.ccc#	.	V65
16E#	.	.	.	.	.	.	.	.
16F##	.	.	.	.	.	.	.	.
16D#	.	.	.	.	.	.	.	.
16E#	.	.	.	.	.	.	.	.
16F##JJ	.	.	.	.	.	.	.	.
16G#LL	.	4.g#)	.	8dd#L])	.	4.bb)	.	i
16F##	.	.	.	.	.	.	.	.
16G#	.	.	.	8dd#	.	.	.	.
16D#	.	.	.	.	.	.	.	.
16BB	.	.	.	8dd#J	.	.	.	.
16GG#JJ)	.	.	.	.	.	.	.	.
=87	=87	=87	=87	=87	=87	=87	=87	=87
4.C#	.	4.c#	.	(16eeLL	.	(4.aaX	.	.bII6
.	.	.	.	16dd#	.	.	.	.
.	.	.	.	16ee	.	.	.	.
.	.	.	.	16dd#	.	.	.	.
.	.	.	.	16ee	.	.	.	.
.	.	.	.	16dd#JJ)	.	.	.	.
!	!LO:DY:a	!	!	!	!	!	!	!
4.E	sf sf	(16G#LL	.	(4.cc##X	sf	(4.gg#)	sf	.Ger6
.	.	16F##X	.	.	.	.	.	.
.	.	16G#	.	.	.	.	.	.
.	.	16F##	.	.	.	.	.	.
.	.	16G#	.	.	.	.	.	.
.	.	16BJJ)	.	.	.	.	.	.
4.D#	>]	4d#	>	4.cc#)	>]	(8gg#L)	>	.
.	.	.	.	.	.	8aa#	.	V7
.	.	(8d#	]]	.	.	8ff##XJ)	]]	.
=88	=88	=88	=88	=88	=88	=88	=88	=88
8GG#L	p	4.dd#)	p	8b#XL	p	8gg#L	p	I\\
8G#	.	.	.	8d#	.	8b#X	.	I[I64
8G#J	.	.	.	8d#J	.	8b#J	.	.
4G#	.	(16cc##XLL	.	4d#	.	4b#	.	.
.	.	16dd#)	.	.	.	.	.	.
.	.	(16ee#	.	.	.	.	.	.
.	.	16dd#)	.	.	.	.	.	.
8r	.	(16a##X	.	8r	.	8r	.	.
.	.	16b#XJJ)	.	.	.	.	.	.
4r	.	(16cc#LL	.	4r	.	4r	.	.
.	.	16b#)	.	.	.	.	.	.
.	.	(16f##X	.	.	.	.	.	.
.	.	16g#)	.	.	.	.	.	.
8r	.	(16a#	.	8r	.	8r	.	.
.	.	16g#JJ)	.	.	.	.	.	.
=89	=89	=89	=89	=89	=89	=89	=89	=89
8GG#L	.	8f##XL	.	4.aa#	.	8d#L 8cc#	.	V7]
8G#	.	8f##	.	.	.	8d# 8cc#	.	.
8G#J	.	8f##J	.	.	.	8d#J 8cc#	.	.
4G#	.	4f##	.	(16gg##XLL	.	4d# 4cc#	.	.
.	.	.	.	16aa#)	.	.	.	.
.	.	.	.	(16bb#X	.	.	.	.
.	.	.	.	16aa#)	.	.	.	.
8r	.	8r	.	(16ee##X	.	8r	.	.
.	.	.	.	16ff##XJJ)	.	.	.	.
4r	.	4r	.	(16gg#LL	.	4r	.	.
.	.	.	.	16ff##)	.	.	.	.
.	.	.	.	(16cc##X	.	.	.	.
.	.	.	.	16dd#)	.	.	.	.
8r	.	8r	.	(16ee#	.	8r	.	.
.	.	.	.	16dd#JJ)	.	.	.	.
=90	=90	=90	=90	=90	=90	=90	=90	=90
!	!	!	!	!	!	!LO:TX:b:Bi:t=Decresc.	!	!
8G#L	.	8b#XL	.	8dd#L	.	4.ddd#	.	I
8g#	.	8b#	.	8dd#	.	.	.	.
8g#J	.	8b#J	.	8dd#J	.	.	.	.
4g#	.	4b#	.	4dd#	.	(16ccc##XLL	.	.
.	.	.	.	.	.	16ddd#)	.	.
.	.	.	.	.	.	(16eee#	.	.
.	.	.	.	.	.	16ddd#)	.	.
8r	.	8r	.	8r	.	(16aa##X	.	.
.	.	.	.	.	.	16bb#XJJ)	.	.
4r	.	4r	.	4r	.	(16ccc#LL	.	.
.	.	.	.	.	.	16bb#)	.	.
.	.	.	.	.	.	(16ff##X	.	.
.	.	.	.	.	.	16gg#)	.	.
8r	.	8r	.	8r	.	(16aa#	.	.
.	.	.	.	.	.	16gg#JJ)	.	.
=91	=91	=91	=91	=91	=91	=91	=91	=91
!	!	!	!	!	!LO:DY:a	!	!	!
8%9r	.	8%9r	.	8%9r	pp	(16dd##XLL	.	@none
.	.	.	.	.	.	16ee#)	.	.
.	.	.	.	.	.	(16ff##X	.	.
.	.	.	.	.	.	16ee#)	.	.
.	.	.	.	.	.	(16b#X	.	.
.	.	.	.	.	.	16cc#JJ)	.	.
.	.	.	.	.	.	(16dd#LL	.	.
.	.	.	.	.	.	16cc#)	.	.
.	.	.	.	.	.	(16g##X	.	.
.	.	.	.	.	.	16a#)	.	.
.	.	.	.	.	.	(16b#	.	.
.	.	.	.	.	.	16a#JJ)	.	.
.	.	.	.	.	.	(16g##LL	.	.
.	.	.	.	.	.	16a#)	.	.
.	.	.	.	.	.	(16b#	.	.
.	.	.	.	.	.	16a#)	.	.
.	.	.	.	.	.	(16g##	.	.
.	.	.	.	.	.	16a#JJ)	.	.
=92	=92	=92	=92	=92	=92	=92	=92	=92
[2.D#	pp	(4a#	.	4r	.	(4cc# ([4.d#	.	V7
.	.	8g#	pp	8r	.	8b#X	.	V(64)
.	.	4f##X	.	(4a#	pp	[4.a# 4.d#_	.	V
.	.	8e#	.	8g#	.	.	.	.
4D#]	.	4d#	.	4f##X)	.	8a#L] 4.d#])	.	.
.	.	.	.	.	.	8b#	.	.
(8C#	.	8A#)	.	8f##'	.	8cc#J)	.	V2
=93	=93	=93	=93	=93	=93	=93	=93	=93
!LO:TX:b:Bi:t=Cresc.	!	!LO:TX:b:Bi:t=Cresc.	!	!LO:TX:b:Bi:t=Cresc.	!	!LO:TX:b:Bi:t=Cresc.	!	!
4BB#X	.	(4G#	.	(4d#	.	(4dd#	.	I6
8AA#)	.	8c#)	.	16e#LL	.	16ee#LL	.	.
.	.	.	.	16f##XJJ)	.	16ff##XJJ)	.	viio6
(8GG#L	.	([4.B#X	.	[4.g#	.	[4.gg#	.	I
8G#	.	.	.	.	.	.	.	.
8F##XJ	.	.	.	.	.	.	.	.
4E#	.	8B#L]	.	8g#L]	.	(8gg#L]	.	vi
.	.	8e#	.	(8g#	.	8b#X)	.	.
8D##X)	.	8f##XJ)	.	8a#J)	.	8b#J	.	V65/vi
=94	=94	=94	=94	=94	=94	=94	=94	=94
(4E#	.	4e#~	.	(4g#	.	(4b#X	.	vi
.	.	.	.	.	.	16qqcc#/LL	.	ii6
.	.	.	.	.	.	16qqb#/	.	.
.	.	.	.	.	.	16qqa#/	.	.
.	.	.	.	.	.	16qqb#/JJ	.	.
8C#	.	8e#'	.	8a#	.	16dd#LL	.	.
.	.	.	.	.	.	16cc#JJ)	.	.
4.D#)	p <	4.d#	<	4.g#	<	([4.b#	.	V(64)
4.D#	>]	4.c#	>]	4.f##X)	>]	8.b#L]	<	V7(6)
.	.	.	.	.	.	16a#L	.	V7
.	.	.	.	.	.	16.ee#	[ >	.
.	.	.	.	.	.	32dd#JJk)	]]	.
=95	=95	=95	=95	=95	=95	=95	=95	=95
4G#	] pp	16G#LL	] pp	16g#LL	] pp	4g#	pp	i.i\\
.	.	16G#'	.	16d#'JJ 16g#	.	.	.	.
.	.	16G#'	.	16d#'LL 16g#	.	.	.	.
.	.	16G#'	.	16d#'JJ 16g#	.	.	.	.
8r	.	16G#'	.	16d#'LL 16g#	.	8r	.	i
.	.	16G#'JJ	.	16d#'JJ 16g#	.	.	.	.
*	*	*tremolo	*	*	*	*	*	*
*	*	*	*	*tremolo	*	*	*	*
4r	.	16BLL	.	16d# 16g#LL	.	4r	.	.
.	.	16B	.	16d# 16g#	.	.	.	.
.	.	16B	.	16d# 16g#	.	.	.	.
.	.	16B	.	16d# 16g#	.	.	.	.
8r	.	16B	.	16d# 16g#	.	8r	.	.
.	.	16BJJ	.	16d# 16g#JJ	.	.	.	.
4r	.	16A# 16c#LL	.	16f##XLL	.	4r	.	#viio6
.	.	16A# 16c#	.	16f##X	.	.	.	.
.	.	16A# 16c#	.	16f##X	.	.	.	.
.	.	16A# 16c#	.	16f##X	.	.	.	.
8r	.	16A# 16c#	.	16f##X	.	8r	.	.
.	.	16A# 16c#JJ	.	16f##XJJ	.	.	.	.
*clefC4	*	*	*	*	*	*	*	*
=96	=96	=96	=96	=96	=96	=96	=96	=96
[2.d#	.	16G#LL	.	16bLL	.	[2.dd#	.	i6
.	.	16G#	.	16b	.	.	.	.
.	.	16G#	.	16b	.	.	.	.
.	.	16G#	.	16b	.	.	.	.
.	.	16G#	.	16b	.	.	.	.
.	.	16G#JJ	.	16bJJ	.	.	.	.
!	!	!	!LO:DY:a	!	!	!	!	!
.	.	16BLL	p p	16d# 16g#LL	.	.	.	.
.	.	16B	.	16d# 16g#	.	.	.	.
.	.	16B	.	16d# 16g#	.	.	.	.
.	.	16B	.	16d# 16g#	.	.	.	.
.	.	16B	.	16d# 16g#	.	.	.	.
.	.	16BJJ	.	16d# 16g#JJ	.	.	.	.
4.d#_	p	16A# 16c#LL	.	16f##XLL	.	4dd#_	.	V43
.	.	16A# 16c#	.	16f##X	.	.	.	.
.	.	16A# 16c#	.	16f##X	.	.	.	.
.	.	16A# 16c#	.	16f##X	.	.	.	.
.	.	16A# 16c#	.	16f##X	.	16dd#LL_	.	.
.	.	16A# 16c#JJ	.	16f##XJJ	.	(112dd#LL]	.	.
.	.	.	.	.	.	112ee	.	.
.	.	.	.	.	.	112ff#	.	.
.	.	.	.	.	.	112gg#	.	.
.	.	.	.	.	.	112aa#	.	.
.	.	.	.	.	.	112bb	.	.
.	.	.	.	.	.	112ccc#JJJJ)	.	.
=97	=97	=97	=97	=97	=97	=97	=97	=97
(4.d#]	.	16G#LL	.	16bLL	.	[2.ddd#	.	i6
.	.	16G#	.	16b	.	.	.	.
.	.	16G#	.	16b	.	.	.	.
.	.	16G#	.	16b	.	.	.	.
.	.	16G#	.	16b	.	.	.	.
.	.	16G#JJ	.	16bJJ	.	.	.	.
4.g#	.	16BLL	.	16d# 16g#LL	.	.	.	.
.	.	16B	.	16d# 16g#	.	.	.	.
.	.	16B	.	16d# 16g#	.	.	.	.
.	.	16B	.	16d# 16g#	.	.	.	.
.	.	16B	.	16d# 16g#	.	.	.	.
.	.	16BJJ	.	16d# 16g#JJ	.	.	.	.
4.a#)	.	16d#LL	.	16f##XLL	.	4ddd#_	.	V
.	.	16d#	.	16f##X	.	.	.	.
.	.	16d#	.	16f##X	.	.	.	.
.	.	16d#	.	16f##X	.	.	.	.
.	.	16d#	.	16f##X	.	16ddd#LL_	.	.
.	.	16d#JJ	.	16f##XJJ	.	(112ddd#LL]	.	.
.	.	.	.	.	.	112eee#	.	.
.	.	.	.	.	.	112fff##X	.	.
.	.	.	.	.	.	112ggg#	.	.
.	.	.	.	.	.	112aaa#	.	.
.	.	.	.	.	.	112bbb	.	.
.	.	.	.	.	.	112cccc#JJJJ)	.	.
=98	=98	=98	=98	=98	=98	=98	=98	=98
!	!	!	!	!	!	!LO:TX:a:t=V(64)	!	!
([4.b	.	16G#LL	.	16d# 16bLL	.	4dddd#'	ff	.
.	.	16G#	.	16d# 16b	.	.	.	.
.	.	16G#	.	16d# 16b	.	.	.	.
.	.	16G#	.	16d# 16b	.	.	.	.
.	.	16G#	.	16d# 16b	.	8r	.	.
.	.	16G#JJ	.	16d# 16bJJ	.	.	.	.
!	!LO:DY:a	!	!LO:DY:a	!	!	!	!	!
!	!LO:DY:a	!	!LO:DY:a	!	!	!	!	!
4b]	ff p p ff	16G#'LL	ff p	16d# 16bLL	.	4g#'	.	.
.	.	16G#'	.	16d# 16b	.	.	.	.
.	.	16G#'	.	16d# 16b	.	.	.	.
.	.	16G#'	.	16d# 16b	.	.	.	.
16a#LL	.	16G#'	.	16d# 16b	.	8r	.	.
16g#JJ)	.	16G#'JJ	.	16d# 16bJJ	.	.	.	.
!	!	!	!	!	!	!LO:TX:a:t=VI6	!	!
(16g#LL	.	16G#LL	.	16e 16bLL	.	4r	.	.
32a#L	.	16G#	.	16e 16b	.	.	.	.
32g#J	.	.	.	.	.	.	.	.
16f##X	.	16G#	.	16e 16b	.	.	.	.
16g#	.	16G#	.	16e 16b	.	.	.	.
16b	.	16G#	.	16e 16b	.	8r	.	.
16a#JJ)	.	16G#JJ	.	16e 16bJJ	.	.	.	.
=99	=99	=99	=99	=99	=99	=99	=99	=99
!	!	!	!LO:DY:a	!	!	!	!	!
(4.g#	f	16A# 16c#LL	f f	16e	.	(32ccc#LLL	f	ii%7
.	.	.	.	.	.	32bb#X	.	.
.	.	16A# 16c#	.	(32cc#LLL	.	32ccc#	.	.
.	.	.	.	32b#X	.	32bb#	.	.
.	.	16A# 16c#	.	32cc#	.	32ccc#	.	.
.	.	.	.	32b#	.	32bb#	.	.
.	.	16A# 16c#	.	32cc#	.	32ccc#	.	.
.	.	.	.	32dd#JJ)	.	32ddd#JJ)	.	.
.	.	16A# 16c#	.	8ee#'J	.	8eee'J	.	.
.	.	16A# 16c#JJ	.	.	.	.	.	.
[4.f##X	.	16A# 16c#LL	.	(32cc#LLL	.	(32ccc#LLL	.	#viio65
.	.	.	.	32b#	.	32bb#	.	.
.	.	16A# 16c#	.	32cc#	.	32ccc#	.	.
.	.	.	.	32b#	.	32bb#	.	.
.	.	16A# 16c#	.	32cc#	.	32ccc#	.	.
.	.	.	.	32b#	.	32bb#	.	.
.	.	16A# 16c#	.	32cc#	.	32ccc#	.	.
.	.	.	.	32dd#JJ)	.	32ddd#JJ)	.	.
.	.	16A# 16c#	.	8ee#'J	.	8eee'J	.	.
.	.	16A# 16c#JJ	.	.	.	.	.	.
8f##L])	.	16A# 16c#LL	.	(32cc#LLL	.	(32ccc#LLL	.	.
.	.	.	.	32b#	.	32bb#	.	.
.	.	16A# 16c#	.	32cc#	.	32ccc#	.	.
.	.	.	.	32dd#	.	32ddd#	.	.
(16f##L	.	16A# 16c#	.	32ee#	.	32eee	.	.
.	.	.	.	32dd#	.	32ddd#	.	.
16g#	.	16A# 16c#	.	32ee#	.	32eee	.	.
.	.	.	.	32dd#	.	32ddd#	.	.
16a#	.	16A# 16c#	.	32cc#	.	32ccc#	.	.
.	.	.	.	32b#	.	32bb	.	.
16bJJ)	.	16A# 16c#JJ	.	32aX	.	32aa#	.	.
.	.	.	.	32g#JJJ)	.	32gg#JJJ)	.	.
=100	=100	=100	=100	=100	=100	=100	=100	=100
[4.cc#	p	16A# 16c#LL	p	8f##X'L	p	4ff##X	p	#viio6
.	.	16A# 16c#	.	.	.	.	.	.
.	.	16A# 16c#	.	8ccc#'	.	.	.	.
.	.	16A# 16c#	.	.	.	.	.	.
.	.	16A# 16c#	.	8aa#'J	.	4r	.	.
.	.	16A# 16c#JJ	.	.	.	.	.	.
!LO:TX:b:Bi:t=Cresc.	!	!LO:TX:b:Bi:t=Cresc.	!	!LO:TX:b:Bi:t=Cresc.	!	!	!	!
8cc#]	.	16A# 16c#LL	.	8ff##X'L	.	.	.	.
.	.	16A# 16c#	.	.	.	.	.	.
8qdd#/	.	.	.	.	.	.	.	.
(16cc#LL	.	16A# 16c#	.	8cc#'	.	8r	.	.
16b#X	.	16A# 16c#	.	.	.	.	.	.
16cc#	.	16A# 16c#	.	8a#'J	.	4r	.	.
16dd#JJ)	.	16A# 16c#JJ	.	.	.	.	.	.
(4ee	.	16A# 16c#LL	.	8f##'L	.	.	.	.
.	.	16A# 16c#	.	.	.	.	.	.
.	.	16A# 16c#	.	8c#'	.	8r	.	.
.	.	16A# 16c#	.	.	.	.	.	.
8f##X)	.	16A# 16c#	.	8ee#'J	.	8r	.	.
.	.	16A# 16c#JJ	.	.	.	.	.	.
=101	=101	=101	=101	=101	=101	=101	=101	=101
4.a#	f	16B 16d#LL	f	(32dd#LLL	f	(32ddd#LLL	f	i6(2)
.	.	.	.	32cc##X	.	32ccc##X	.	.
.	.	16B 16d#	.	32dd#	.	32ddd#	.	.
.	.	.	.	32cc##JJJ	.	32ccc##	.	.
.	.	16B 16d#	.	32dd#LLL	.	32ddd#	.	.
.	.	.	.	32cc#	.	32ccc#	.	.
.	.	16B 16d#	.	32b#X	.	32bb	.	.
.	.	.	.	32a#JJJ)	.	32aa#JJ)	.	.
.	.	16B 16d#	.	8g#'	.	8gg#'J	.	.
.	.	16B 16d#JJ	.	.	.	.	.	.
!	!	!	!	!	!	!LO:TX:a:t=i6	!	!
[4.g#	.	16B 16d#LL	.	(32dd#LLL	.	(32ddd#LLL	.	.
.	.	.	.	32cc##X	.	32ccc##X	.	.
.	.	16B 16d#	.	32dd#	.	32ddd#	.	.
.	.	.	.	32cc##JJJ	.	32ccc##	.	.
.	.	16B 16d#	.	32dd#LLL	.	32ddd#	.	.
.	.	.	.	32cc#	.	32ccc#	.	.
.	.	16B 16d#	.	32b#	.	32bb	.	.
.	.	.	.	32a#JJJ)	.	32aa#JJ)	.	.
.	.	16B 16d#	.	8g#'	.	8gg#'J	.	.
.	.	16B 16d#JJ	.	.	.	.	.	.
8g#]	.	16B 16d#LL	.	(32dd#LLL	.	(32ddd#LLL	.	.
.	.	.	.	32cc##X	.	32ccc##X	.	.
.	.	16B 16d#	.	32dd#	.	32ddd#	.	.
.	.	.	.	32cc##JJJ	.	32ccc##	.	.
*clefF4	*	*	*	*	*	*	*	*
8BB'	.	16B 16d#	.	32dd#LLL	.	32ddd#	.	.
.	.	.	.	32cc#	.	32ccc#	.	.
.	.	16B 16d#	.	32b#	.	32bb	.	.
.	.	.	.	32a#JJJ	.	32aa#	.	.
8BB'	.	16B 16d#	.	32g#LLL	.	32gg#	.	.
.	.	.	.	32a#	.	32aa#	.	.
.	.	16B 16d#JJ	.	32b#	.	32bb	.	.
.	.	.	.	32g#JJJ)	.	32gg#JJJ)	.	.
=102	=102	=102	=102	=102	=102	=102	=102	=102
!	!	!	!LO:DY:a	!	!	!	!	!
4C#	f	4e	f f	4c# 4aX	.	(32aaXLLL	f	.bII6
.	.	.	.	.	.	32gg#	.	.
.	.	.	.	.	.	32aa	.	.
.	.	.	.	.	.	32bb	.	.
.	.	.	.	.	.	32ccc#	.	.
.	.	.	.	.	.	32bb#X	.	.
.	.	.	.	.	.	32ccc#	.	.
.	.	.	.	.	.	32ddd#JJ)	.	.
8r	.	8r	.	8r	.	8eee'J	.	.
4r	.	4r	.	4r	.	4r	.	.
8r	.	8r	.	8r	.	8r	.	.
4r	.	4r	.	4r	.	4r	.	.
8r	.	8r	.	8r	.	8r	.	.
=103	=103	=103	=103	=103	=103	=103	=103	=103
4D#	f	4f# 4aX	f	4d# 4b#X	f	(32bb#XLLL	f	#viio65/iv
.	.	.	.	.	.	32aa#	.	.
.	.	.	.	.	.	32bb#	.	.
.	.	.	.	.	.	32ccc#	.	.
.	.	.	.	.	.	32ddd#	.	.
.	.	.	.	.	.	32ccc#	.	.
.	.	.	.	.	.	32ddd#	.	.
.	.	.	.	.	.	32eeeJJ)	.	.
8r	.	8r	.	8r	.	8fff#'J	.	.
4r	.	4r	.	4r	.	4r	.	.
8r	.	8r	.	8r	.	8r	.	.
4r	.	4r	.	4r	.	4r	.	.
8r	.	8r	.	8r	.	8r	.	.
=104	=104	=104	=104	=104	=104	=104	=104	=104
4E	f	4e 4g#	f	4e 4cc#	f	(32ccc#LLL	f	iv6
.	.	.	.	.	.	32bb#X	.	.
.	.	.	.	.	.	32ccc#	.	.
.	.	.	.	.	.	32ddd#	.	.
.	.	.	.	.	.	32eee	.	.
.	.	.	.	.	.	32ddd#	.	.
.	.	.	.	.	.	32eee	.	.
.	.	.	.	.	.	32fff#JJ)	.	.
8r	.	8r	.	8r	.	8ggg#J	.	.
4r	.	4r	.	4r	.	4r	.	.
8r	.	8r	.	8r	.	8r	.	.
4r	.	4r	.	4r	.	4r	.	.
8r	.	8r	.	8r	.	8r	.	.
=105	=105	=105	=105	=105	=105	=105	=105	=105
*tremolo	*	*	*	*	*	*	*	*
!	!LO:DY:a	!	!LO:DY:a	!	!LO:DY:a	!	!	!
16C##XLL	ff ff >	16e#LL	ff >	16g# 16gg#LL	ff >	2.bbb	.	#viio7/V
16C##X	.	16e#	.	16g# 16gg#	.	.	.	.
16C##X	.	16e#	.	16g# 16gg#	.	.	.	.
16C##X	.	16e#	.	16g# 16gg#	.	.	.	.
16C##X	.	16e#	.	16g# 16gg#	.	.	.	.
16C##XJJ	.	16e#JJ	.	16g# 16gg#JJ	.	.	.	.
16C##LL	.	16e#LL	.	16g# 16gg#LL	.	.	.	.
16C##	.	16e#	.	16g# 16gg#	.	.	.	.
16C##	.	16e#	.	16g# 16gg#	.	.	.	.
16C##	.	16e#	.	16g# 16gg#	.	.	.	.
16C##	.	16e#	.	16g# 16gg#	.	.	.	.
16C##JJ	.	16e#JJ	.	16g# 16gg#JJ	.	.	.	.
*	*	*	*	*Xtremolo	*	*	*	*
!	!LO:DY:a	!	!LO:DY:a	!	!LO:DY:a	!	!	!
16D#LL	] p p	16c#LL	] p	(16eLL	] p	4.f##X	>]	V
16D#	.	16c#	.	16d#)	.	.	.	.
16D#	.	16c#	.	16d#'	.	.	.	.
16D#	.	16c#	.	16d#'	.	.	.	.
16D#	.	16c#	.	16d#	.	.	.	.
16D#JJ	.	16c#JJ	.	16d#JJ	.	.	.	.
*	*	*Xtremolo	*	*	*	*	*	*
*Xtremolo	*	*	*	*	*	*	*	*
=106	=106	=106	=106	=106	=106	=106	=106	=106
4GG#	.	8BL	.	4d#	.	4g#	.	i\\
.	.	(8d#'	.	.	.	.	.	.
8r	.	8d#'J)	.	8r	.	8r	.	.
4r	.	(8d#'L	.	4r	.	4r	.	.
.	.	8d#'	.	.	.	.	.	.
8r	.	8d#'J)	.	8r	.	8r	.	.
4r	.	(8d#'L	.	4r	.	(16g#LL	.	.
.	.	.	.	.	.	16b	.	.
.	.	8d#'	.	.	.	16dd#	.	.
.	.	.	.	.	.	16gg#	.	.
8r	.	8d#'J)	.	8r	.	16aa#	.	.
.	.	.	.	.	.	16bbJJ)	.	.
=107	=107	=107	=107	=107	=107	=107	=107	=107
(4.D#	>	(8f##XL	>	16cc#LL	<	(4bb	>	V7(6)
.	.	.	.	16ee	.	.	.	.
.	.	8d#)	.	16ff##X	.	.	.	.
.	.	.	.	16ee	[ >	.	.	.
.	.	8d#J	]	16ff##	.	8aa#)	.	V7
.	.	.	.	16cc#JJ	.	.	.	.
4G#)	.	(8d#'L	.	4b	]	4gg#'	]	i
.	.	8d#'	.	.	.	.	.	.
8r	.	8d#'J)	.	8r	.	8r	.	.
4r	.	(8d#'L	.	4r	.	(24g#LL	.	.
.	.	.	.	.	.	24b	.	.
.	.	.	.	.	.	24dd#JJ	.	.
.	.	8d#'	.	.	.	24ff##XLL	.	.
.	.	.	.	.	.	24gg#	.	.
.	.	.	.	.	.	24aa#JJ	.	.
8r	]]	8d#'J)	.	8r	.	32bbLLL	.	.
.	.	.	.	.	.	48ccc##X	.	.
.	.	.	.	.	.	48ddd#	.	.
.	.	.	.	.	.	48bb	.	.
.	.	.	.	.	.	32gg#JJJ)	.	.
=108	=108	=108	=108	=108	=108	=108	=108	=108
(4.D#	>	(8f##XL	>	(16cc#LL	<	(4bb	.	V7(6)
.	.	.	.	16ee	.	.	.	.
.	.	8d#)	.	16ff##X	.	.	.	.
.	.	.	.	16ee	[ >	.	.	.
.	.	8d#J	]	16ff##	.	8aa#	.	V7
.	.	.	.	16cc#JJ)	.	.	.	.
4G#)	.	(8d#'L	.	8bL	]	4gg#)	.	i
.	.	8d#'	.	(8dd#'	.	.	.	.
8r	.	8d#'J)	.	8dd#'J)	.	8r	.	.
4r	.	(8d#L	.	(8dd#L	.	(24g#LL	.	.
.	.	.	.	.	.	24b	.	.
.	.	.	.	.	.	24dd#JJ	.	.
.	.	8B)	.	8b)	.	24ff##XLL	.	.
.	.	.	.	.	.	24gg#	.	.
.	.	.	.	.	.	24aa#JJ	.	.
8r	]]	8G#J	.	8g#J	.	24bb#XLL	.	.
.	.	.	.	.	.	24ccc##X	.	.
.	.	.	.	.	.	24ddd#JJ)	.	.
=109	=109	=109	=109	=109	=109	=109	=109	=109
[2.D#	<	[2.A# [2.c#	<	[2.f##X	<	(16eeeLL	.	V9
.	.	.	.	.	.	16ccc#	.	.
.	.	.	.	.	.	16aa#	.	.
.	.	.	.	.	.	16ff##X	.	.
.	.	.	.	.	.	16ccc#	.	.
.	.	.	.	.	.	16aa#JJ)	.	.
.	.	.	.	.	.	(16ff##LL	.	.
.	.	.	.	.	.	16eeJ	.	.
.	.	.	.	.	.	[8aa#	.	.
.	.	.	.	.	.	32aa#LL]	.	.
.	.	.	.	.	.	32ff##	.	.
.	.	.	.	.	.	32ee	.	.
.	.	.	.	.	.	32cc#JJJ	.	.
4.D#]	>]	4.A#] 4.c#]	>]	4.f##]	>]	32ff##LLL	.	.
.	.	.	.	.	.	32ee	.	.
.	.	.	.	.	.	32cc#	.	.
.	.	.	.	.	.	32a#JJJ	.	.
.	.	.	.	.	.	[8eeL	.	.
.	.	.	.	.	.	32eeLL]	.	.
.	.	.	.	.	.	32cc#	.	.
.	.	.	.	.	.	32a#	.	.
.	.	.	.	.	.	32f##XJJJ)	.	.
=110	=110	=110	=110	=110	=110	=110	=110	=110
!	!	!	!LO:DY:a	!	!	!	!	!
4GG#	] pp	4B	] pp pp	4d#	]	4g#	pp	i
8r	.	8r	.	8r	.	8r	.	.
4G#	.	4B	.	4d#	.	4g#	.	i\\
8r	.	8r	.	8r	.	8r	.	.
4r	.	4r	.	4r	.	4r	.	.
8r	.	8r	.	8r	.	8r	.	.
==	==	==	==	==	==	==	==	==
*-	*-	*-	*-	*-	*-	*-	*-	*-
!!!system-decoration: [(s1,s2,s3,s4)]
